!!!COM: Beethoven 
!!!OTL: 12 Variationen uber einen russichen Tanz von P. Wranitzky
!!!Variation: Theme a
**function	**harm	**kern	**kern
*	*	*clefF4	*clefG2
*	*	*k[f#c#g#]	*k[f#c#g#]
*M2/4	*M2/4	*M2/4	*M2/4
*A:	*A:	*A:	*A:
*	*	*	*^
4T	4I	4A	4e	(8aL 8cc#
.	.	.	.	8eeJ
=1	=1	=1	=1	=1
4T	4V7b	4G#	4e	8bL 8dd
.	.	.	.	8eeJ
4T	4I	4A	4e	8aL 8cc#
.	.	.	.	8eeJ)
=2	=2	=2	=2	=2
4T	4V	4E	4e	(8g#L 8b
.	.	.	.	8eeJ
4T	4V7d	4D	4e	8g#L 8b
.	.	.	.	8cc#J)
=3	=3	=3	=3	=3
4T	4Ib	4C#	8r	4a
.	.	.	[4.e	.
4T	4I	4AA	.	8aL
.	.	.	.	16bL
.	.	.	.	16cc#JJ
=4	=4	=4	=4	=4
4T	4V7b	4GG#	2e]	(8ddL
.	.	.	.	16bL
.	.	.	.	16ddJJ
4T	4I	4AA	.	8cc#L
.	.	.	.	16aL
.	.	.	.	16cc#JJ)
=5	=5	=5	=5	=5
4D	4V	4EE	4g#	4b
*	*	*	*v	*v
*-	*-	*-	*-
!!!COM: Beethoven 
!!!OTL: 12 Variationen uber einen russichen Tanz von P. Wranitzky
!!!Variation: Theme b
**function	**harm	**kern	**kern
*	*	*clefF4	*clefG2
*	*	*k[f#c#g#]	*k[f#c#g#]
*M2/4	*M2/4	*M2/4	*M2/4
*A:	*A:	*A:	*A:
*	*	*	*^
4T	4I	4A	8aL	(8cc#L
.	.	.	8eJ	8eeJ
=6	=6	=6	=6	=6
4T	4V7b	4G#	8bL	8ddL
.	.	.	8eJ	8eeJ
4T	4I	4A	8aL	8cc#L
.	.	.	8eJ	8eeJ)
=7	=7	=7	=7	=7
4T	4V	4E	8g#L	(8bL
.	.	.	8eJ	8eeJ
4T	4V7d	4D	8g#L	8bL
.	.	.	8eJ	8cc#J)
=8	=8	=8	=8	=8
4T	4Ib	4C#	8r	4a
.	.	.	4.e	.
4T	4I	4AA	.	8aL
.	.	.	.	16cc#L
.	.	.	.	16eeJJ
=9	=9	=9	=9	=9
4P	4IV	4D	4f#	8dd'L
.	.	.	.	8cc#'J
4D	4V	4E	4g#	4b
=10	=10	=10	=10	=10
4T	4I	4AA	4a	4a
*	*	*	*v	*v
*-	*-	*-	*-
!!!COM: Beethoven 
!!!OTL: 12 Variationen uber einen russichen Tanz von P. Wranitzky
!!!Variation: Theme c
**function	**harm	**kern	**kern
*	*	*clefF4	*clefG2
*	*	*k[f#c#g#]	*k[f#c#g#]
*M2/4	*M2/4	*M2/4	*M2/4
*A:	*A:	*A:	*A:
*	*	*	*^
4T	4I	4A 4e	4a	(8cc#L
.	.	.	.	8eeJ
=11	=11	=11	=11	=11
4T	4V7b	4G# 4e	4b	8ddL
.	.	.	.	16eeL
.	.	.	.	16ddJJ
4T	4I	4A 4e	4a	8cc#L
.	.	.	.	8aaJ
=12	=12	=12	=12	=12
4T	4V	4E 4e	4g#	8bL
.	.	.	.	8eeJ)
4T	4I	4A 4e	4a	(8cc#L
.	.	.	.	8eeJ
=13	=13	=13	=13	=13
4T	4V7b	4G# 4e	4b	8ddL
.	.	.	.	16eeL
.	.	.	.	16ddJJ
4T	4I	4A 4e	4a	8cc#L
.	.	.	.	8aaJ)
=14	=14	=14	=14	=14
4D	4V	4E 4e	4g#	(4b
*	*	*	*v	*v
*-	*-	*-	*-
!!!COM: Beethoven 
!!!OTL: 12 Variationen uber einen russichen Tanz von P. Wranitzky
!!!Variation: Theme d
**function	**harm	**kern	**kern
*	*	*clefF4	*clefG2
*	*	*k[f#c#g#]	*k[f#c#g#]
*M2/4	*M2/4	*M2/4	*M2/4
*A:	*A:	*A:	*A:
*	*	*	*^
4T	4I	4AA	8aL	8cc#L
.	.	.	8eJ	8eeJ
=15	=15	=15	=15	=15
4T	4V7b	4GG#	8bL	8ddL
.	.	.	8eJ	8eeJ
4T	4I	4AA	8aL	8cc#L
.	.	.	8eJ	8eeJ
=16	=16	=16	=16	=16
2T	2V7d	2DD 2D	8g#L	8bL
.	.	.	8eJ	8eeJ
.	.	.	8g#L	8bL
.	.	.	8eJ	8cc#J)
=17	=17	=17	=17	=17
*	*	*^	*	*
2T	2Ib	2C#	4r	8r	[4a
.	.	.	.	4.e	.
.	.	.	4A	.	8aL]
.	.	.	.	.	16cc#L
.	.	.	.	.	16eeJJ
*	*	*	*	*v	*v
=18	=18	=18	=18	=18
4P	4ii	4D	8BL	8dd'L
.	.	.	8F#J	8cc#'J
4D	4V	4E	4G#	8.bL
.	.	.	.	32aLL
.	.	.	.	32bJJJ
=19	=19	=19	=19	=19
4T	4I	4AA	4A	4a
*	*	*v	*v	*
*-	*-	*-	*-
!!!COM: Beethoven 
!!!OTL: 12 Variationen uber einen russichen Tanz von P. Wranitzky
!!!Variation: Variation 1 a
**function	**harm	**kern	**kern
*	*	*clefF4	*clefG2
*	*	*k[f#c#g#]	*k[f#c#g#]
*M2/4	*M2/4	*M2/4	*M2/4
*A:	*A:	*A:	*A:
4T	4I	4A 4e	16r
.	.	.	16cc#LK
.	.	.	[8eeeJ
=20	=20	=20	=20
4T	4V7b	4G# 4e	16eeeLL]
.	.	.	16ddJ
.	.	.	[8eeeJ
4T	4I	4A 4e	16eeeLL]
.	.	.	16cc#J
.	.	.	[8eeeJ
=21	=21	=21	=21
4T	4V	4E 4G#	16eeeLL]
.	.	.	16bJ
.	.	.	[8eeeJ
4T	4V7d	4D 4G#	16eeeLL]
.	.	.	16bJ
.	.	.	8cc#J
=22	=22	=22	=22
4.T	4.Ib	4C# 4A	(32aLLL
.	.	.	32b
.	.	.	32a
.	.	.	32g#JJ
.	.	.	32aLL
.	.	.	32b
.	.	.	32cc#
.	.	.	32ddJJJ
.	.	8r	48eeLLL
.	.	.	48ff#
.	.	.	48gg#
.	.	.	48aa
.	.	.	48bb
.	.	.	48ccc#JJ
*	*	*clefG2	*
8T	8I	8a	32dddLL
.	.	.	32ccc#
.	.	.	32bb
.	.	.	32ccc#JJJ)
=23	=23	=23	=23
4T	4V7b	8g#L	(16eeeLL
.	.	.	16ddd)
.	.	8eJ	(16ddd
.	.	.	16bbJJ)
4T	4I	8aL	(16dddLL
.	.	.	16ccc#)
.	.	8cc#J	(16ccc#
.	.	.	16aaJJ)
=24	=24	=24	=24
4D	4V	4ee	(8ff##L 8aa#
.	.	.	8gg#J) 8bb
*-	*-	*-	*-
!!!COM: Beethoven 
!!!OTL: 12 Variationen uber einen russichen Tanz von P. Wranitzky
!!!Variation: Variation 1 b
**function	**harm	**kern	**kern
*	*	*clefF4	*clefG2
*	*	*k[f#c#g#]	*k[f#c#g#]
*M2/4	*M2/4	*M2/4	*M2/4
*A:	*A:	*A:	*A:
4T	4I	4A 4e	16r
.	.	.	16cc#LK
.	.	.	[8eeeJ
=25	=25	=25	=25
4T	4V7b	4G# 4e	16eeeLL]
.	.	.	16ddJ
.	.	.	[8eeeJ
4T	4I	4A 4e	16eeeLL]
.	.	.	16cc#J
.	.	.	[8eeeJ
=26	=26	=26	=26
4T	4V	4E 4G#	16eeeLL]
.	.	.	16bJ
.	.	.	[8eeeJ
4T	4V7d	4D 4E 4G#	16eeeLL]
.	.	.	16bJ
.	.	.	8cc#J
=27	=27	=27	=27
2T	2Ib	4C# 4E 4A	(32aLLL
.	.	.	32b
.	.	.	32a
.	.	.	32g#JJ
.	.	.	32aLL
.	.	.	32b
.	.	.	32cc#
.	.	.	32ddJJJ
.	.	8r	32eeLLL
.	.	.	32ff#
.	.	.	32gg#
.	.	.	32aaJJ
*	*	*clefG2	*
.	.	8c#' 8a'	32bbLL
.	.	.	32ccc#
.	.	.	32ddd
.	.	.	32eeeJJJ)
=28	=28	=28	=28
8P	8IVb	8f#'L 8a'	(16eeeLL
.	.	.	16ddd)
8P	8Ic	8e'J 8a'	(16ddd
.	.	.	16ccc#JJ)
.	.	.	q8ccc#
8P	8ii7	8d'L 8a'	(16bbLL
.	.	.	16aa
8D	8V	8e'J 8g#'	16bb
.	.	.	16ccc#JJ)
=29	=29	=29	=29
4T	4I	8AL	4aa
.	.	8aJ	.
*-	*-	*-	*-
!!!COM: Beethoven 
!!!OTL: 12 Variationen uber einen russichen Tanz von P. Wranitzky
!!!Variation: Variation 1 c
**function	**harm	**kern	**kern
*	*	*clefG2	*clefG2
*	*	*k[f#c#g#]	*k[f#c#g#]
*M2/4	*M2/4	*M2/4	*M2/4
*A:	*A:	*A:	*A:
4T	4vib	8r	(16cc#LL
.	.	.	16ee#
.	.	(8a	16ff#
.	.	.	16cc#JJ
=30	=30	=30	=30
8T	8Vb	8g#L	16bLL
.	.	.	16dd#
8T	8vb	8gJ	16ee
.	.	.	16b-JJ
8T	8vi	8f#L	16aLL
.	.	.	16cc#
8T	8ivb	8fJ	16dd
.	.	.	16g#JJ
=31	=31	=31	=31
4T	4v	8eL	16f##LL
.	.	.	16b#
.	.	8d#J)	16cc#
.	.	.	[16f#JJ
4T	4iib	(4d	16f#LL]
.	.	.	16a#
.	.	.	16b
.	.	.	16fJJ
=32	=32	=32	=32
8T	8V7d	8dL	16eLL
.	.	.	16g#
8T	8Ib	8c#J)	16a
.	.	.	16eJJ
8T	8V7c	8B'L	16dLL
.	.	.	16g#
8T	8I	8A'J	16c#
.	.	.	16aJJ)
*	*	*clefF4	*
=33	=33	=33	=33
4D	4V	(8eL	(8aL 8cc#
.	.	8EJ)	8g#J) 8b
*-	*-	*-	*-
!!!COM: Beethoven 
!!!OTL: 12 Variationen uber einen russichen Tanz von P. Wranitzky
!!!Variation: Variation 1 d
**function	**harm	**kern	**kern
*	*	*clefF4	*clefG2
*	*	*k[f#c#g#]	*k[f#c#g#]
*M2/4	*M2/4	*M2/4	*M2/4
*A:	*A:	*A:	*A:
4T	4I	4AA 4E	16r
.	.	.	16cc#LK
.	.	.	[8eeeJ
=34	=34	=34	=34
4T	4V7b	4GG# 4E	16eeeLL]
.	.	.	16ddJ
.	.	.	[8eeeJ
4T	4I	4AA 4E	16eeeLL]
.	.	.	16cc#J
.	.	.	[8eeeJ
=35	=35	=35	=35
2T	2V7d	4D 4E 4G#	16eeeLL]
.	.	.	16bJ
.	.	.	[8eeeJ
.	.	4D 4E 4G# 4B	16eeeLL]
.	.	.	16bJ
.	.	.	8cc#J
=36	=36	=36	=36
4.T	4.Ib	4C# 4E 4A 4c#	(32aLLL
.	.	.	32b
.	.	.	32a
.	.	.	32g#JJ
.	.	.	32aLL
.	.	.	32b
.	.	.	32cc#
.	.	.	32ddJJJ)
.	.	8r	(32eeLLL
.	.	.	32ff#
.	.	.	32gg#
.	.	.	32aaJ)
8P	8IV	8D'	(16aa
.	.	.	16ff#JJ)
=37	=37	=37	=37
4D	4Cc	8E'L	(16ff#LL
.	.	.	16ee)
.	.	8A'J 8c#'	(16ee
.	.	.	16cc#JJ)
4D	4V7	8E'L	(16eeLL
.	.	.	16dd)
.	.	8G#'J 8d'	(16dd
.	.	.	16bJJ)
=38	=38	=38	=38
4.T	4.I	8AL 8c#	4a
.	.	8AAJ	.
.	.	8r	8r
*-	*-	*-	*-
!!!COM: Beethoven 
!!!OTL: 12 Variationen uber einen russichen Tanz von P. Wranitzky
!!!Variation: Variation 2 a
**function	**harm	**kern	**kern
*	*	*clefF4	*clefG2
*	*	*k[f#c#g#]	*k[f#c#g#]
*M2/4	*M2/4	*M2/4	*M2/4
*A:	*A:	*A:	*A:
8T	8I	16A'LL	[8e [8ee
.	.	16G'JJ	.
=39	=39	=39	=39
4T	4V7	16F#'LL	8e] 8ee]
.	.	16E'	.
.	.	16F#'	4d 4dd
.	.	16G#'JJ	.
4T	4I	16A'LL	.
.	.	16AA'	.
.	.	16BB'	[8c# [8cc#
.	.	16C#'JJ	.
=40	=40	=40	=40
2T	2V7d	16DLL	8c#] 8cc#]
.	.	16C#	.
.	.	16D	4B 4b
.	.	16EJJ	.
.	.	16DLL	.
.	.	16C#	.
.	.	16D	[8e
.	.	16EJJ	.
=41	=41	=41	=41
4T	4Ib	16DLL	8e]
.	.	16C#	.
.	.	16D	4A 4a
.	.	16EJJ	.
4T	4I	16DLL	.
.	.	16C#	.
.	.	16BB	16B'LL 16b'
.	.	16AAJJ	16c#'JJ 16cc#'
=42	=42	=42	=42
4T	4V7b	16GG#LL	8d' 8dd'
.	.	16FF#	.
.	.	16EE	4e 4ee
.	.	16GG#JJ	.
4T	4I	16AALL	.
.	.	16BB	.
.	.	16C#	8a 8cc#
.	.	16DJJ	.
=43	=43	=43	=43
4D	4V	8EL	4g# 4b
.	.	16eL	.
.	.	16dJJ	.
*-	*-	*-	*-
!!!COM: Beethoven 
!!!OTL: 12 Variationen uber einen russichen Tanz von P. Wranitzky
!!!Variation: Variation 2 b
**function	**harm	**kern	**kern
*	*	*clefF4	*clefG2
*	*	*k[f#c#g#]	*k[f#c#g#]
*M2/4	*M2/4	*M2/4	*M2/4
*A:	*A:	*A:	*A:
4T	4I	16c#LL	8r
.	.	16B	.
.	.	16A	[8e [8ee
.	.	16GJJ	.
=44	=44	=44	=44
4T	4V7	16F#LL	8e] 8ee]
.	.	16E	.
.	.	16F#	4d 4dd
.	.	16G#JJ	.
4T	4I	16ALL	.
.	.	16AA	.
.	.	16BB	[8c# [8cc#
.	.	16C#JJ	.
=45	=45	=45	=45
2T	2V7d	16DLL	8c#] 8cc#]
.	.	16C#	.
.	.	16D	4B 4b
.	.	16EJJ	.
.	.	16DLL	.
.	.	16C#	.
.	.	16D	[8e
.	.	16EJJ	.
=46	=46	=46	=46
4T	4Ib	16DLL	8e]
.	.	16C#	.
.	.	16D	4A 4a
.	.	16EJJ	.
4T	4I	16DLL	.
.	.	16C#	.
.	.	16BB	16B'LL 16b'
.	.	16AAJJ	16c#'JJ 16cc#'
=47	=47	=47	=47
4P	4iib	16DDLL	16d'LL 16dd'
.	.	16FF#	16e'JJ 16ee'
.	.	16BB	4f# 4ff#
.	.	16DJJ	.
4D	4V	16EELL	.
.	.	16BB	.
.	.	16E	(8G# 8g#
.	.	16DJJ	.
=48	=48	=48	=48
4T	4I	16C#LL	8A) 8a
.	.	16BBJ	.
.	.	8AAJ	8r
*-	*-	*-	*-
!!!COM: Beethoven 
!!!OTL: 12 Variationen uber einen russichen Tanz von P. Wranitzky
!!!Variation: Variation 2 c
**function	**harm	**kern	**kern
*	*	*clefF4	*clefG2
*	*	*k[f#c#g#]	*k[f#c#g#]
*M2/4	*M2/4	*M2/4	*M2/4
*A:	*A:	*A:	*A:
4D	4I	8r	24eLL
.	.	.	24a
.	.	.	24cc#J
.	.	(8A	24eeL
.	.	.	24dd
.	.	.	24cc#JJ
=49	=49	=49	=49
*	*	*^	*
4D	4V7	4E	8dL	24eLL
.	.	.	.	24g#
.	.	.	.	24bJ
.	.	.	8BJ	24ddL
.	.	.	.	24cc#
.	.	.	.	24bJJ
4D	4Ic	4E	8c#L	24aLL
.	.	.	.	24cc#
.	.	.	.	24eeJ
.	.	.	8AJ	24aaL
.	.	.	.	24gg#
.	.	.	.	24aaJJ
=50	=50	=50	=50	=50
4D	4V	4E	8G#L	8bb
.	.	.	8eJ)	8r
4D	4Ic	4r	8r	24eLL
.	.	.	.	24a
.	.	.	.	24cc#J
.	.	.	(8A	24eeL
.	.	.	.	24dd
.	.	.	.	24cc#JJ
=51	=51	=51	=51	=51
4D	4V7	4E	8dL	24eLL
.	.	.	.	24g#
.	.	.	.	24bJ
.	.	.	8BJ	24ddL
.	.	.	.	24cc#
.	.	.	.	24bJJ
4D	4Ic	4E	8c#L	24aLL
.	.	.	.	24cc#
.	.	.	.	24eeJ
.	.	.	8AJ	24aaL
.	.	.	.	24gg#
.	.	.	.	24aaJJ
=52	=52	=52	=52	=52
4D	4V	8E	8G#L)	4bb
*	*	*v	*v	*
.	.	16eL	.
.	.	16dJJ	.
*-	*-	*-	*-
!!!COM: Beethoven 
!!!OTL: 12 Variationen uber einen russichen Tanz von P. Wranitzky
!!!Variation: Variation 2 d
**function	**harm	**kern	**kern
*	*	*clefF4	*clefG2
*	*	*k[f#c#g#]	*k[f#c#g#]
*M2/4	*M2/4	*M2/4	*M2/4
*A:	*A:	*A:	*A:
4T	4I	16c#LL	8r
.	.	16B	.
.	.	16A	[8ee [8eee
.	.	16GJJ	.
=53	=53	=53	=53
4T	4V7	16F#LL	8ee] 8eee]
.	.	16E	.
.	.	16F#	4dd 4ddd
.	.	16G#JJ	.
4T	4I	16ALL	.
.	.	16AA	.
.	.	16BB	[8cc# [8ccc#
.	.	16C#JJ	.
=54	=54	=54	=54
2T	2V7d	16DLL	8cc#] 8ccc#]
.	.	16C#	.
.	.	16D	4b 4bb
.	.	16EJJ	.
.	.	16DLL	.
.	.	16C#	.
.	.	16D	[8e [8ee
.	.	16EJJ	.
=55	=55	=55	=55
2T	2Ib	16DLL	8e] 8ee]
.	.	16C#	.
.	.	16D	4a 4aa
.	.	16EJJ	.
.	.	16DLL	.
.	.	16C#	.
.	.	16BB	16b'LL 16bb'
.	.	16AAJJ	16cc#'JJ 16ccc#'
=56	=56	=56	=56
4P	4iib	16DDLL	16dd'LL 16ddd'
.	.	16FF#	16ee'JJ 16eee'
.	.	16BB	4ff# 4fff#
.	.	16DJJ	.
4D	4V7	16EELL	.
.	.	16BB	.
.	.	16E	(8g# 8gg#
.	.	16DJJ	.
=57	=57	=57	=57
4T	4I	16C#LL	4a) 4aa
.	.	16BBJ	.
.	.	8AAJ	.
*-	*-	*-	*-
!!!COM: Beethoven 
!!!OTL: 12 Variationen uber einen russichen Tanz von P. Wranitzky
!!!Variation: Variation 2 c2 
**funtion	**harm	**kern	**kern
*	*	*clefF4	*clefG2
*	*	*k[f#c#g#]	*k[f#c#g#]
*M2/4	*M2/4	*M2/4	*M2/4
*A:	*A:	*A:	*A:
4T	4I	8r	24eLL
.	.	.	24a
.	.	.	24cc#J
.	.	(8A	24eeL
.	.	.	24dd
.	.	.	24cc#JJ
=58	=58	=58	=58
*	*	*^	*
4T	4V7	4E	8dL	24eLL
.	.	.	.	24g#
.	.	.	.	24bJ
.	.	.	8BJ	24ddL
.	.	.	.	24cc#
.	.	.	.	24bJJ
4T	4Ic	4E	8c#L	24aLL
.	.	.	.	24cc#
.	.	.	.	24eeJ
.	.	.	8AJ	24aaL
.	.	.	.	24gg#
.	.	.	.	24aaJJ
=59	=59	=59	=59	=59
4T	4V	4E	8G#L	8bb
.	.	.	8eJ)	8r
4T	4I	4r	8r	24eLL
.	.	.	.	24a
.	.	.	.	24cc#J
.	.	.	(8A	24eeL
.	.	.	.	24dd
.	.	.	.	24cc#JJ
=60	=60	=60	=60	=60
4T	4V7	4E	8dL	24eLL
.	.	.	.	24g#
.	.	.	.	24bJ
.	.	.	8BJ	24ddL
.	.	.	.	24cc#
.	.	.	.	24bJJ
4T	4Ic	4E	8c#L	24aLL
.	.	.	.	24cc#
.	.	.	.	24eeJ
.	.	.	8AJ	24aaL
.	.	.	.	24gg#
.	.	.	.	24aaJJ
=61	=61	=61	=61	=61
4D	4V	8E	8G#L)	4bb
*	*	*v	*v	*
.	.	16eL	.
.	.	16dJJ	.
*-	*-	*-	*-
!!!COM: Beethoven 
!!!OTL: 12 Variationen uber einen russichen Tanz von P. Wranitzky
!!!Variation: Variation 2 d2
**funtion	**harm	**kern	**kern
*	*	*clefF4	*clefG2
*	*	*k[f#c#g#]	*k[f#c#g#]
*M2/4	*M2/4	*M2/4	*M2/4
*A:	*A:	*A:	*A:
4T	4I	16c#LL	8r
.	.	16A	.
.	.	16B	[8gg [8eee
.	.	16c#JJ	.
=62	=62	=62	=62
4T	4IV	16dLL	8gg] 8eee]
.	.	16D	.
.	.	16F#	4ff# 4ddd
.	.	16G#JJ	.
4T	4I	16ALL	.
.	.	16AA	.
.	.	16C#	[8ee [8ccc#
.	.	16DJJ	.
=63	=63	=63	=63
4T	4V7	16ELL	8ee] 8ccc#]
.	.	16EE	.
.	.	16FF#	4dd 4bb
.	.	16GG#JJ	.
4T	4I	16AALL	.
.	.	16AAA	.
.	.	16BBB	[8cc# [8aa
.	.	16CC#JJ	.
=64	=64	=64	=64
4P	4IV	16DDLL	8cc#] 8aa]
.	.	16EE	.
.	.	16FF#	4dd 4ff#
.	.	16GG#JJ	.
4P	4I	16AALL	.
.	.	16BB	.
.	.	16C#	[8cc# [8ee
.	.	16DJJ	.
=65	=65	=65	=65
2D	2V7	16ELL	8cc#L] 8ee]
.	.	16F#	.
.	.	16G#	16f#'L 16dd'
.	.	16AJJ	16e'JJ 16cc#'
.	.	8DL	(16eLL 16cc#
.	.	.	16d) 16b
.	.	8EJ	16c#' 16a'
.	.	.	16B'JJ 16g#'
=66	=66	=66	=66
4T	4I	4AA	4c# 4a
*-	*-	*-	*-
!!!COM: Beethoven 
!!!OTL: 12 Variationen uber einen russichen Tanz von P. Wranitzky
!!!Variation: Variation 3 a
**function	**harm	**kern	**kern
*	*	*clefG2	*clefG2
*	*	*k[]	*k[]
*M2/4	*M2/4	*M2/4	*M2/4
*a:	*a:	*a:	*a:
4T	4i	8aL	8ccL 8ee
.	.	8aJ	8ccJ 8ee
=67	=67	=67	=67
8T	8viioD7	(8g#L	(8ddL 8ff
8T	8i	8aJ	8ccJ 8ee
8T	8V7	8eL	8bL 8dd
8T	8i	8fJ	8aJ 8cc
*	*	*clefF4	*
=68	=68	=68	=68
8T	8viioD7/iv	8c#L	8gL 8b-
8T	8iv	8dJ	8fJ 8a
8T	8viioD7/iv	8c#L	8gL 8b-
8T	8iv	8dJ	8fJ 8a
=69	=69	=69	=69
8T	8viioD7b	8BL	8dL 8f 8g#
8T	8ib	8cJ	8eJ 8a
8T	8viioD7b	8BL	8dL 8f 8g#
8T	8ib	8cJ	8eJ) 8a
=70	=70	=70	=70
4D	4viioD7c	8d)	8r
.	.	8r	8f 8g# 8b
4D	4viioD7/V	8d#	8r
.	.	8r	8f# 8a 8cc
=71	=71	=71	=71
4D	4V	8e	8r
.	.	8r	8g# 8b
*-	*-	*-	*-
!!!COM: Beethoven 
!!!OTL: 12 Variationen uber einen russichen Tanz von P. Wranitzky
!!!Variation: Variation 3 b
**function	**harm	**kern	**kern
*	*	*clefF4	*clefG2
*	*	*k[]	*k[]
*M2/4	*M2/4	*M2/4	*M2/4
*a:	*a:	*a:	*a:
4T	4i	8AL 8c	8e'L 8ee'
.	.	8AJ 8c	8e'J 8ee'
=72	=72	=72	=72
8T	8V7b	(8G#L 8d	(8fL 8ff
8T	8i	8AJ 8c	8eJ 8ee
8T	8V7	8EL 8B	8dL 8dd
8T	4VI	8FJ 8A	8cJ 8cc
=73	=73	=73	=73
8T	8viioD7/iv	8C#L 8G	8B-L 8b-
8T	8iv	8DJ 8F	8AJ 8a
8T	8viioD7b	8BBL 8D 8F	8G#L 8g#
8T	8ib	8CJ 8E	8AJ 8a
=74	=74	=74	=74
8T	8viioD7b	8BBL 8D 8F	8G#L 8g#
8T	8ib	8CJ 8E	8AJ 8a
8D	8viioD7b	8DL 8F 8G#	8BL 8b
8D	8viioD7/V	8D#J) 8F# 8A	8cJ) 8cc
=75	=75	=75	=75
4D	4Cc	8E	8r
.	.	8r	8c 8e 8a
4D	4V7	8EE	8r
.	.	8r	8B 8d 8e 8g#
=76	=76	=76	=76
4T	4i	8AAA 8AA	8r
.	.	8r	8c 8e 8a
*-	*-	*-	*-
!!!COM: Beethoven 
!!!OTL: 12 Variationen uber einen russichen Tanz von P. Wranitzky
!!!Variation: Variation 3 c
**function	**harm	**kern	**kern
*	*	*clefF4	*clefG2
*	*	*k[]	*k[]
*M2/4	*M2/4	*M2/4	*M2/4
*a:	*a:	*a:	*a:
*	*	*	*^
4P	4V7/iv	8r	4cc# 4ee	(16ggLL
.	.	.	.	16aa
.	.	8AAA 8AA	.	16bb-
.	.	.	.	16aaJJ)
=77	=77	=77	=77	=77
2P	2iv	8DD'L 8D'	4dd	(16ffLL
.	.	.	.	16aa
.	.	8FF'J 8F'	.	16bb-
.	.	.	.	16aaJJ)
.	.	8AA'L 8A'	4dd	(16ffLL
.	.	.	.	16aa
.	.	8D'J 8d'	.	16bb-
.	.	.	.	16aaJJ)
=78	=78	=78	=78	=78
8P	8ivb	8F'L 8f'	8ddL	16ffLL
.	.	.	.	16aa
4.P	4.V7/iv	8A'J 8a'	8cc#J	16ee
.	.	.	.	16aaJJ
.	.	8r	4cc# 4ee	(16ggLL
.	.	.	.	16aa
.	.	8AAA 8AA	.	16bb-
.	.	.	.	16aaJJ)
=79	=79	=79	=79	=79
2P	2iv	8DD'L 8D'	4dd	(16ffLL
.	.	.	.	16aa
.	.	8FF'J 8F'	.	16bb-
.	.	.	.	16aaJJ)
.	.	8AA'L 8A'	4dd	(16ffLL
.	.	.	.	16aa
.	.	8D'J 8d'	.	16bb-
.	.	.	.	16aaJJ)
=80	=80	=80	=80	=80
8P	8ivb	8F'L 8f'	8ddL	16ffLL
.	.	.	.	16aa
8P	8V/iv	8A'J 8a'	8cc#J	16ee
.	.	.	.	16aaJJ
*	*	*	*v	*v
8D	8V	8r	8eeL 8eee
*-	*-	*-	*-
!!!COM: Beethoven 
!!!OTL: 12 Variationen uber einen russichen Tanz von P. Wranitzky
!!!Variation: Variation 3 d
**function	**harm	**kern	**kern
*	*	*clefG2	*clefG2
*	*	*M2/4	*M2/4
*	*	*k[]	*k[]
*a:	*a:	*a:	*a:
8T	8i	8a 8cc	8eeJ 8eee
=81	=81	=81	=81
8T	8V7b	(8g#L 8dd	(8ffL 8fff
8T	8i	8aJ 8cc	8eeJ 8eee
8T	8V7	8eL 8b	8ddL 8ddd
8T	8VI	8fJ 8a	8ccJ 8ccc
=82	=82	=82	=82
8T	8viioD7/iv	8c#L 8g	8b-L 8bb-
8T	8iv	8dJ 8f	8aJ 8aa
8T	8viioD7b	8BL 8d 8f	8g#L 8gg#
8T	8ib	8cJ 8e	8aJ 8aa
=83	=83	=83	=83
8T	8viioD7b	8BL 8d 8f	8g#L 8gg#
8T	8ib	8cJ 8e	8aJ 8aa
8T	8viioD7c	8dL 8f 8g#	8bL 8bb
8T	8viioD7/V	8d#J) 8f# 8a	8ccJ) 8ccc
*	*	*clefF4	*
=84	=84	=84	=84
4D	4Cc	8e	8r
.	.	8r	8cc 8ee 8aa
4D	4V7	8E	8r
.	.	8r	8b 8dd 8ee 8gg#
=85	=85	=85	=85
4T	4i	8AA 8A	8r
.	.	8r	8a 8cc 8ee 8aa
*-	*-	*-	*-
!!!COM: Beethoven 
!!!OTL: 12 Variationen uber einen russichen Tanz von P. Wranitzky
!!!Variation: Variation 4 a
**function	**harm	**kern	**kern
*	*	*clefF4	*clefG2
*	*	*k[f#c#g#]	*k[f#c#g#]
*M2/4	*M2/4	*M2/4	*M2/4
*A:	*A:	*A:	*A:
*	*	*^	*
4T	4I	(4AA	(8C#L	8r
.	.	.	8EJ	[8e
=86	=86	=86	=86	=86
4T	4V7b	4GG#	8DL	8e]
.	.	.	8EJ	4e
4T	4I	4AA)	8C#L	.
.	.	.	8EJ	[8e
=87	=87	=87	=87	=87
2T	2V7	2EE	8BBL	16eLL]
.	.	.	.	(32f#L
.	.	.	.	32g#JJ
.	.	.	8EJ	32aLL
.	.	.	.	32b
.	.	.	.	32cc#
.	.	.	.	32ddJJJ
.	.	.	8BBL	16ee'LL)
.	.	.	.	(32ff#L
.	.	.	.	32gg#JJ
.	.	.	8C#J)	32aaLL
.	.	.	.	32bb
.	.	.	.	32ccc#
.	.	.	.	32dddJJJ)
=88	=88	=88	=88	=88
2T	2Ib	2CC#	([4AA	(32eeeLLL
.	.	.	.	32ddd#
.	.	.	.	32eee
.	.	.	.	32ddd#JJ
.	.	.	.	32eeeLL
.	.	.	.	32ddd#
.	.	.	.	32eee
.	.	.	.	32ddd#JJJ
.	.	.	8AAL]	16eee'LL)
.	.	.	.	(32dddL
.	.	.	.	32ccc#JJ
.	.	.	16BBL	32bbLL
.	.	.	.	32aa
.	.	.	16C#JJ)	32gg#
.	.	.	.	32ff#JJJ
=89	=89	=89	=89	=89
4T	4V7b	4GG#	(8DL	8ee'L)
.	.	.	8BBJ	(32eeLL
.	.	.	.	32ff#
.	.	.	.	32ee
.	.	.	.	32dd#JJJ
4T	4I	4AA	8C#L	8ee'L)
.	.	.	8EJ	(32eeLL
.	.	.	.	32ff#
.	.	.	.	32ee
.	.	.	.	32dd#JJJ
=90	=90	=90	=90	=90
4D	4V	4EE	8BBL	8ee)
.	.	.	8EJ)	8r
*	*	*v	*v	*
*-	*-	*-	*-
!!!COM: Beethoven 
!!!OTL: 12 Variationen uber einen russichen Tanz von P. Wranitzky
!!!Variation: Variation 4 b
**function	**harm	**kern	**kern
*	*	*clefF4	*clefG2
*	*	*k[f#c#g#]	*k[f#c#g#]
*M2/4	*M2/4	*M2/4	*M2/4
*A:	*A:	*A:	*A:
*	*	*^	*
4T	4I	4AA	(8C#L	8r
.	.	.	8EJ	[8e
=91	=91	=91	=91	=91
4T	4V7b	4GG#	8DL	8e]
.	.	.	8EJ	4e
4T	4I	4AA	8C#L	.
.	.	.	8EJ	[8e
=92	=92	=92	=92	=92
2T	2V7	2EE	8BBL	16eLL]
.	.	.	.	(32f#L
.	.	.	.	32g#JJ
.	.	.	8EJ	32aLL
.	.	.	.	32b
.	.	.	.	32cc#
.	.	.	.	32ddJJJ
.	.	.	8BBL	16ee'LL)
.	.	.	.	(32ff#L
.	.	.	.	32gg#JJ
.	.	.	8C#J)	32aaLL
.	.	.	.	32bb
.	.	.	.	32ccc#
.	.	.	.	32dddJJJ)
=93	=93	=93	=93	=93
2T	2Ib	2CC#	([4AA	(32eeeLLL
.	.	.	.	32ddd#
.	.	.	.	32eee
.	.	.	.	32ddd#JJ
.	.	.	.	32eeeLL
.	.	.	.	32ddd
.	.	.	.	32ccc#
.	.	.	.	32bbJJJ)
.	.	.	8AAL]	(36aaLLL
.	.	.	.	36gg#
.	.	.	.	36ff#
.	.	.	.	36ee
.	.	.	.	36dd
.	.	.	16BBL	.
.	.	.	.	36c#
.	.	.	.	36b
.	.	.	16C#JJ)	.
.	.	.	.	36a
.	.	.	.	36g#JJJ
=94	=94	=94	=94	=94
4P	4IV	4DD	(8DL	8f#'L)
.	.	.	8C#J	8dd'J
4D	4V7	4EE	8BBL	8r
.	.	.	8EJ)	8d 8g#
*	*	*v	*v	*
=95	=95	=95	=95
4T	4I	8AAL	8c# 8a
.	.	8AAAJ	8r
*-	*-	*-	*-
!!!COM: Beethoven 
!!!OTL: 12 Variationen uber einen russichen Tanz von P. Wranitzky
!!!Variation: Variation 4 c
**function	**harm	**kern	**kern
*	*	*clefG2	*clefG2
*	*	*k[f#c#g#]	*k[f#c#g#]
*M2/4	*M2/4	*M2/4	*M2/4
*A:	*A:	*A:	*A:
*	*	*^	*
8T	8I	4r	8r	(8aaL
8T	8V7d/iv	.	8g	8cc#J
=96	=96	=96	=96	=96
.	.	.	.	q8ee
2T	2IVc	[2A	8f#L	16ddLL
.	.	.	.	16cc#
.	.	.	8eJ	16dd
.	.	.	.	16eeJJ
.	.	.	8dL	8ff#'L)
.	.	.	8eJ	(8g#J
=97	=97	=97	=97	=97
4.T	4.I	8A]	8c#	8b
*	*	*clefF4	*clefF4	*
.	.	[4.AA	8r	4a)
.	.	.	8AL	.
8T	8V7/IV	.	8GJ	(8c#
=98	=98	=98	=98	=98
2T	2IVc	2AA]	8F#L	16dLL
.	.	.	.	16c#
.	.	.	8EJ	16d
.	.	.	.	16eJJ
.	.	.	8DL	8f#'L)
.	.	.	8EJ	(8G#J
=99	=99	=99	=99	=99
4T	4I	4AA	8C#L	8BL
.	.	.	8EJ	8AJ)
*	*	*v	*v	*
*-	*-	*-	*-
!!!COM: Beethoven 
!!!OTL: 12 Variationen uber einen russichen Tanz von P. Wranitzky
!!!Variation: Variation 4 d
**function	**harm	**kern	**kern
*	*	*clefF4	*clefG2
*	*	*k[f#c#g#]	*k[f#c#g#]
*M2/4	*M2/4	*M2/4	*M2/4
*A:	*A:	*A:	*A:
*	*	*^	*
4T	4I	4AA	(8C#L	8r
.	.	.	8EJ	[8e
=100	=100	=100	=100	=100
4T	4V7b	4GG#	8DL	8e]
.	.	.	8EJ	4e
4T	4I	4AA	8C#L	.
.	.	.	8EJ	[8e
=101	=101	=101	=101	=101
2T	2V	2EE	8BBL	16eLL]
.	.	.	.	(32f#L
.	.	.	.	32g#JJ
.	.	.	8EJ	32aLL
.	.	.	.	32b
.	.	.	.	32cc#
.	.	.	.	32ddJJJ
.	.	.	8BBL	16ee'LL)
.	.	.	.	(32ff#L
.	.	.	.	32gg#JJ
.	.	.	8C#J)	32aaLL
.	.	.	.	32bb
.	.	.	.	32ccc#
.	.	.	.	32dddJJJ)
=102	=102	=102	=102	=102
2T	2Ib	2CC#	([4AA	(32eeeLLL
.	.	.	.	32ddd#
.	.	.	.	32eee
.	.	.	.	32ddd#JJ
.	.	.	.	32eeeLL
.	.	.	.	32ddd
.	.	.	.	32ccc#
.	.	.	.	32bbJJJ
.	.	.	8AAL]	(36aaLLL
.	.	.	.	36gg#
.	.	.	.	36ff#
.	.	.	.	36ee
.	.	.	.	36dd
.	.	.	16BBL	.
.	.	.	.	36c#
.	.	.	.	36b
.	.	.	16C#JJ)	.
.	.	.	.	36a
.	.	.	.	36g#JJ
=103	=103	=103	=103	=103
4P	4IV	4DD	(8DL	8f#'L)
.	.	.	8C#J	8ff#'J
4D	4V7	4EE	8BBL	8r
.	.	.	8EJ)	8B 8d 8g#
*	*	*v	*v	*
=104	=104	=104	=104
4T	4I	8AAL	8c# 8a
.	.	8AAAJ	8r
*-	*-	*-	*-
!!!COM: Beethoven 
!!!OTL: 12 Variationen uber einen russichen Tanz von P. Wranitzky
!!!Variation: Variation 5 a
**function	**harm	**kern	**kern
*	*	*clefF4	*clefG2
*	*	*k[f#c#g#]	*k[f#c#g#]
*M2/4	*M2/4	*M2/4	*M2/4
*A:	*A:	*A:	*A:
4T	4I	(4AAA 4AA	(16ELL
.	.	.	16A
.	.	.	16c#
.	.	.	16eJJ
=105	=105	=105	=105
4T	4V7b	4GGG# 4GG#	16ELL
.	.	.	16B
.	.	.	16e
.	.	.	16dJJ
4T	4I	4AAA 4AA	16ELL
.	.	.	16A
.	.	.	16d
.	.	.	16c#JJ
=106	=106	=106	=106
4T	4V7	4EE	16ELL
.	.	.	16G#
.	.	.	16c#
.	.	.	16BJJ
4T	4V7d	4DD 4D	16ELL
.	.	.	16G#
.	.	.	16d#
.	.	.	16eJJ
=107	=107	=107	=107
4T	4Ib	4CC# 4C#	16ALL
.	.	.	16c#
.	.	.	16f#
.	.	.	16eJJ
4T	4viiob	4BBB 4BB	16BLL
.	.	.	16d
.	.	.	16a
.	.	.	16g#JJ
=108	=108	=108	=108
4T	4I	4AAA 4AA	16c#LL
.	.	.	16e
.	.	.	16b
.	.	.	16aJJ
4T	4V7b/V	4FFF#) 4FF#	16d#LL
.	.	.	16a
.	.	.	16cc#
.	.	.	16bJJ
=109	=109	=109	=109
4D	4V	4EEE 4EE	16aLL
.	.	.	16g#
.	.	.	16f#
.	.	.	16eJJ)
*-	*-	*-	*-
!!!COM: Beethoven 
!!!OTL: 12 Variationen uber einen russichen Tanz von P. Wranitzky
!!!Variation: Variation 5 b
**function	**harm	**kern	**kern
*	*	*clefF4	*clefG2
*	*	*k[f#c#g#]	*k[f#c#g#]
*M2/4	*M2/4	*M2/4	*M2/4
*A:	*A:	*A:	*A:
4T	4I	(4AAA 4AA	16ELL
.	.	.	16A
.	.	.	16c#
.	.	.	16eJJ
=110	=110	=110	=110
4T	4V7b	4GGG# 4GG#	16ELL
.	.	.	16B
.	.	.	16e
.	.	.	16dJJ
4T	4V7d/IV	4GGG 4GG	16ALL
.	.	.	16c#
.	.	.	16f#
.	.	.	16eJJ
=111	=111	=111	=111
4P	4IVb	4FFF#) 4FF#	16ALL
.	.	.	16d
.	.	.	16b
.	.	.	16aJJ
4P	4ivb	[4FFF [4FF	16ALL
.	.	.	16d
.	.	.	16b
.	.	.	16aJJ
=112	=112	=112	=112
4P	4ivb	4FFF] 4FF]	16ALL
.	.	.	16d
.	.	.	16b
.	.	.	16aJJ
4P	4Lt	4FF	16ALL
.	.	.	16d#
.	.	.	16b
.	.	.	16aJJ
=113	=113	=113	=113
4D	4Cc	4EE	16c#LL
.	.	.	16e
.	.	.	16b
.	.	.	16aJJ
4D	4V7	4EE	16BLL
.	.	.	16d
.	.	.	16a
.	.	.	16g#JJ
=114	=114	=114	=114
4T	4I	4AAA 4AA	4c# 4a
*-	*-	*-	*-
!!!COM: Beethoven 
!!!OTL: 12 Variationen uber einen russichen Tanz von P. Wranitzky
!!!Variation: Variation 5 c
**function	**harm	**kern	**kern
*	*	*clefF4	*clefG2
*	*	*k[f#c#g#]	*k[f#c#g#]
*M2/4	*M2/4	*M2/4	*M2/4
*A:	*A:	*A:	*A:
*	*	*	*^
4T	4I	4AA 4E	4e	16eLL
.	.	.	.	16a
.	.	.	.	16cc#
.	.	.	.	16cc#JJ
=115	=115	=115	=115	=115
4T	4V7b	4GG# 4E	4d	(16cc#LL
.	.	.	.	16b
.	.	.	.	16a#
.	.	.	.	16bJJ)
4T	4I	4AA 4E	4c#	16r
.	.	.	.	16aLL
.	.	.	.	16a
.	.	.	.	16aJJ
=116	=116	=116	=116	=116
4T	4V	4EE 4E	4B	(16aLL
.	.	.	.	16g#
.	.	.	.	16f##
.	.	.	.	16g#JJ)
4T	4I	4AA 4E	4e	16r
.	.	.	.	16cc#LL
.	.	.	.	16cc#
.	.	.	.	16cc#JJ
=117	=117	=117	=117	=117
4T	4V7b	4GG# 4E	4d	(16cc#LL
.	.	.	.	16b
.	.	.	.	16a#
.	.	.	.	16bJJ)
4T	4I	4AA 4E	4c#	(16bLL
.	.	.	.	16a
.	.	.	.	16g#
.	.	.	.	16aJJ)
=118	=118	=118	=118	=118
4D	4V	4EE 4E	4B	(16aLL
.	.	.	.	16g#
.	.	.	.	16f##
.	.	.	.	16g#JJ)
*	*	*	*v	*v
*-	*-	*-	*-
!!!COM: Beethoven 
!!!OTL: 12 Variationen uber einen russichen Tanz von P. Wranitzky
!!!Variation: Variation 5 d
**function	**harm	**kern	**kern
*	*	*clefF4	*clefG2
*	*	*k[f#c#g#]	*k[f#c#g#]
*M2/4	*M2/4	*M2/4	*M2/4
*A:	*A:	*A:	*A:
4T	4I	(4AAA 4AA	(16ELL
.	.	.	16A
.	.	.	16c#
.	.	.	16eJJ
=119	=119	=119	=119
4T	4V7b	4GGG# 4GG#	16ELL
.	.	.	16B
.	.	.	16e
.	.	.	16dJJ
4T	4V7d/IV	4GGG 4GG	16ALL
.	.	.	16c#
.	.	.	16f#
.	.	.	16eJJ
=120	=120	=120	=120
4P	4IVb	4FFF#) 4FF#	16ALL
.	.	.	16d
.	.	.	16b
.	.	.	16aJJ
4P	4ivb	[4FFF [4FF	16ALL
.	.	.	16d
.	.	.	16b
.	.	.	16aJJ
=121	=121	=121	=121
4P	4ivb	4FFF] 4FF]	16ALL
.	.	.	16d
.	.	.	16b
.	.	.	16aJJ
4P	4Lt	4FF	16BLL
.	.	.	16d#
.	.	.	16b
.	.	.	16aJJ
=122	=122	=122	=122
4D	4Cc	4EE	16c#LL
.	.	.	16e
.	.	.	16b
.	.	.	16aJJ
4D	4V7	4EE	16BLL
.	.	.	16d
.	.	.	16a
.	.	.	16g#JJ)
=123	=123	=123	=123
4T	4I	4AAA 4AA	4c# 4a
*-	*-	*-	*-
!!!COM: Beethoven 
!!!OTL: 12 Variationen uber einen russichen Tanz von P. Wranitzky
!!!Variation: Variation 6 a
**function	**harm	**kern	**kern
*	*	*clefF4	*clefG2
*	*	*k[f#c#g#]	*k[f#c#g#]
*M2/4	*M2/4	*M2/4	*M2/4
*A:	*A:	*A:	*A:
4T	4Ib	4r	(8ccc#L
.	.	.	8eeeJ
=124	=124	=124	=124
4T	4IVb	2r	8ff#L
.	.	.	8dddJ
4T	4Ic	.	8eeL
.	.	.	8ccc#J
=125	=125	=125	=125
*	*	*	*^
2T	2V7d	2r	2dd	8ddL
.	.	.	.	8bbJ
.	.	.	.	8gg#L
.	.	.	.	8eeJ)
*	*	*clefG2	*	*
=126	=126	=126	=126	=126
*	*	*^	*	*
2T	2I	8r	4r	4r	([2aa
.	.	(8cc#	.	.	.
.	.	8aL	[4a	[4cc#	.
.	.	8g#J	.	.	.
=127	=127	=127	=127	=127	=127
4P	4vi	2f#)	4a]	4cc#]	8aaL]
.	.	.	.	.	8gg#J
4P	4V7c/V	.	4b	4dd#	8aaL
.	.	.	.	.	8bbJ)
*	*	*	*	*v	*v
=128	=128	=128	=128	=128
4D	4V	4e	4b	(8gg#L
.	.	.	.	8eeJ)
*	*	*v	*v	*
*-	*-	*-	*-
!!!COM: Beethoven 
!!!OTL: 12 Variationen uber einen russichen Tanz von P. Wranitzky
!!!Variation: Variation 6 b
**function	**harm	**kern	**kern
*	*	*clefG2	*clefG2
*	*	*k[f#c#g#]	*k[f#c#g#]
*M2/4	*M2/4	*M2/4	*M2/4
*A:	*A:	*A:	*A:
4T	4Ib	(8cc#L	4r
.	.	8eeJ	.
=129	=129	=129	=129
4T	4IVb	8f#L	2r
.	.	8ddJ	.
4T	4Ic	8eL	.
.	.	8cc#J	.
=130	=130	=130	=130
*	*	*^	*
2T	2V7d	2d	8dL	2r
.	.	.	8bJ	.
.	.	.	8g#L	.
.	.	.	8eJ)	.
=131	=131	=131	=131	=131
4T	4Ib	4c#	4.a	8r
.	.	.	.	(8aa
4T	4I	4f#	.	8ccc#L 8cc#L
.	.	.	8a	8ddd#J 8dd#J
=132	=132	=132	=132	=132
*	*	*	*	*^
4D	4Cc	4e	(8cc#L	8eeL	8eeeL
.	.	.	8aJ	8cc#J	8ccc#J
4D	4V7	4e	8bL	4dd	8dddL
.	.	.	8g#J)	.	8bbJ
*	*	*v	*v	*	*
=133	=133	=133	=133	=133
4T	4I	8aL	4cc#	4aa)
.	.	8AJ	.	.
*	*	*v	*v	*
*-	*-	*-	*-
!!!COM: Beethoven 
!!!OTL: 12 Variationen uber einen russichen Tanz von P. Wranitzky
!!!Variation: Variation 6 c
**function	**harm	**kern	**kern
*	*	*clefG2	*clefG2
*	*	*k[f#c#g#]	*k[f#c#g#]
*M2/4	*M2/4	*M2/4	*M2/4
*A:	*A:	*A:	*A:
*	*	*	*^
4T	4I	8r	(4cc#	8r
.	.	8a'	.	([8ff#
=134	=134	=134	=134	=134
8T	8ii	8r	4b	8ff#]
8T	8Vb	8g#'	.	4ee
8T	8I	8r	4a	.
8T	8viiob/V	8f#'	.	[8dd#
=135	=135	=135	=135	=135
4T	4V7	8r	4g#)	8dd#L]
.	.	8e'	.	8eeJ)
*	*	*	*v	*v
*	*	*^	*
8T	8I	4A	(8c#L	8r
8T	8vi	.	[8f#J	8a' 8aa'
=136	=136	=136	=136	=136
4D	4V7c	4B	8f#]	8r
.	.	.	4e	8b' 8gg#'
4D	4V7/V	4B	.	8r
.	.	.	[8d#	8a' 8ff#'
=137	=137	=137	=137	=137
4D	4V	8E	8d#L]	8r
.	.	[8e	8eJ)	8g#' 8ee'
*	*	*v	*v	*
*-	*-	*-	*-
!!!COM: Beethoven 
!!!OTL: 12 Variationen uber einen russichen Tanz von P. Wranitzky
!!!Variation: Variation 6 d
**function	**harm	**kern	**kern
*	*	*clefG2	*clefG2
*	*	*k[f#c#g#]	*k[f#c#g#]
*M2/4	*M2/4	*M2/4	*M2/4
*A:	*A:	*A:	*A:
*	*	*^	*
4T	4Ib	4e]	8r	(8ccc#L
.	.	.	(16cc#LL	[8eeeJ)
.	.	.	16bJJ	.
=138	=138	=138	=138	=138
*	*	*	*	*^
4T	4ii	[2e	8a#L	4ff#	8eee]
.	.	.	16bL	.	4ddd
.	.	.	16aJJ	.	.
8T	8V	.	8g#L	4ee	.
8T	8Ic	.	16aL	.	[8ccc#
.	.	.	16g#JJ)	.	.
=139	=139	=139	=139	=139	=139
2T	2V7	2e]	(8f#L	4.dd	8ccc#L]
.	.	.	8g#J	.	8bbJ
.	.	.	8bL	.	8gg#L
.	.	.	8g#J)	8dd	8eeJ
*	*	*	*	*v	*v
=140	=140	=140	=140	=140
4T	4I	(8aL	2a	[2cc# [2aa
.	.	8f#J	.	.
4T	4Ib	8c#L	.	.
.	.	8d#J)	.	.
*	*	*clefF4	*clefF4	*
=141	=141	=141	=141	=141
4D	4Cc	8e	(4.e	8cc#] (8aaL]
.	.	4.E	.	8aJ 8cc#
4D	4V7	.	.	8bL 8dd
.	.	.	8d)	8g#J) 8b
*	*	*v	*v	*
=142	=142	=142	=142
4T	4I	8AL 8c#	4a
.	.	8AAJ	.
*-	*-	*-	*-
!!!COM: Beethoven 
!!!OTL: 12 Variationen uber einen russichen Tanz von P. Wranitzky
!!!Variation: Variation 7 a
**function	**harm	**kern	**kern
*	*	*clefF4	*clefG2
*	*	*k[]	*k[]
*M2/4	*M2/4	*M2/4	*M2/4
*a:	*a:	*a:	*a:
4T	4i	8r	24ccLL
.	.	.	24b
.	.	.	24aJ
.	.	8A 8c 8e	24eeL
.	.	.	24cc
.	.	.	24aJJ
=143	=143	=143	=143
4T	4VI	8r	24ccLL
.	.	.	24b
.	.	.	24aJ
.	.	8A 8c 8f	24ffL
.	.	.	24cc
.	.	.	24aJJ
4T	4i	8r	24ccLL
.	.	.	24b
.	.	.	24aJ
.	.	8A 8c 8e	24eeL
.	.	.	24cc
.	.	.	24aJJ
=144	=144	=144	=144
8T	8i	8r	24ccLL
.	.	.	24b
.	.	.	24aJ
4.T	4.viioD7b/V	24F#LL	24dd#L
.	.	24c	24cc
.	.	24d#JJ	24aJJ
.	.	24F#LL	24dd#LL
.	.	24c	24cc
.	.	24d#J	24aJ
.	.	24F#L	24dd#L
.	.	24c	24cc
.	.	24d#JJ	24aJJ
=145	=145	=145	=145
8T	8viioD7b/V	24F#LL	24dd#LL
.	.	24c	24cc
.	.	24d#J	24aJ
4.T	4.V7b	24G#L	24ddL
.	.	24B	24b
.	.	24dJJ	24eJJ
.	.	24G#LL	24ddLL
.	.	24B	24b
.	.	24dJ	24eJ
.	.	24G#L	24ddL
.	.	24B	24b
.	.	24dJJ	24eJJ
=146	=146	=146	=146
8T	8V7b	24G#LL	24ddLL
.	.	24B	24b
.	.	24dJ	24eJ
8T	8i	24AL	24ccL
.	.	24c	24a
.	.	24AJJ	24eJJ
8P	8iib	8DL	24bLL
.	.	.	24f
.	.	.	24dJ
8P	8viioD7/V	8D#J	24aL
.	.	.	24f#
.	.	.	24cJJ
=147	=147	=147	=147
4D	4V	8EL	8B 8e 8g#
.	.	8EEJ	8r
*-	*-	*-	*-
!!!COM: Beethoven 
!!!OTL: 12 Variationen uber einen russichen Tanz von P. Wranitzky
!!!Variation: Variation 7 b
**function	**harm	**kern	**kern
*	*	*clefF4	*clefG2
*	*	*k[]	*k[]
*M2/4	*M2/4	*M2/4	*M2/4
*a:	*a:	*a:	*a:
4T	4i	8r	24ccLL
.	.	.	24b
.	.	.	24aJ
.	.	8A 8c 8e	24eeL
.	.	.	24cc
.	.	.	24aJJ
=148	=148	=148	=148
8T	8i	8r	24ccLL
.	.	.	24b
.	.	.	24aJ
4T	4VI	8A 8c 8f	24ffL
.	.	.	24cc
.	.	.	24aJJ
.	.	8r	24ccLL
.	.	.	24b
.	.	.	24aJ
8T	8i	8A 8c 8e	24eeL
.	.	.	24cc
.	.	.	24aJJ
=149	=149	=149	=149
8T	8i	8r	24ccLL
.	.	.	24b
.	.	.	24aJ
4.T	4.viioD7b/V	24F#LL	24dd#L
.	.	24c	24cc
.	.	24d#JJ	24aJJ
.	.	24F#LL	24dd#LL
.	.	24c	24cc
.	.	24d#J	24aJ
.	.	24F#L	24dd#L
.	.	24c	24cc
.	.	24d#JJ	24aJJ
=150	=150	=150	=150
8T	8viioD7b/V	24F#LL	24dd#LL
.	.	24c	24cc
.	.	24d#J	24aJ
4T	4V7	24G#L	24ddL
.	.	24B	24b
.	.	24dJJ	24eJJ
.	.	24G#LL	24ddLL
.	.	24B	24b
.	.	24dJ	24eJ
8T	8i	24AL	24ccL
.	.	24B	24a
.	.	24cJJ	24eJJ
=151	=151	=151	=151
8P	8iv7	24DLL	24ccLL
.	.	24F	24f
.	.	24cJ	24dJ
8P	8iiob	24DL	24bL
.	.	24F	24f
.	.	24BJJ	24dJJ
8D	8Cc	8EL	24aLL
.	.	.	24e
.	.	.	24cJ
8D	8V7	8EEJ	24g#L
.	.	.	24d
.	.	.	24BJJ
=152	=152	=152	=152
4T	4i	8AAL	8c 8e 8a
.	.	8AAAJ	8r
*-	*-	*-	*-
!!!COM: Beethoven 
!!!OTL: 12 Variationen uber einen russichen Tanz von P. Wranitzky
!!!Variation: Variation 7 c
**function	**harm	**kern	**kern
*	*	*clefG2	*clefG2
*	*	*k[]	*k[]
*M2/4	*M2/4	*M2/4	*M2/4
*a:	*a:	*a:	*a:
8T	8ib	4r	24aaLL
.	.	.	24gg
.	.	.	24ffJ
8T	8viio/VI	.	24bb-L
.	.	.	24gg
.	.	.	24eeJJ
=153	=153	=153	=153
8T	8ivb	24aLL	24ffLL
.	.	24g	24ee
.	.	24fJ	24ddJ
8T	8viioD7b/iv	24b-L	24ggL
.	.	24g	24ee
.	.	24eJJ	24cc#JJ
4T	4iv	8fL	24ddLL
.	.	.	24cc#
.	.	.	24ddJ
.	.	8dJ	24ffL
.	.	.	24ee
.	.	.	24ddJJ
=154	=154	=154	=154
2T	2V7m9/iv	24ALL	8cc# 8aa
.	.	24c#	.
.	.	24dJ	.
.	.	24eL	8r
.	.	24f#	.
.	.	24g#JJ	.
.	.	24aLL	4r
.	.	24g	.
.	.	24fJ	.
.	.	24b-L	.
.	.	24g	.
.	.	24eJJ	.
=155	=155	=155	=155
8P	8iv	24fLL	24aaLL
.	.	24e	24gg
.	.	24dJ	24ffJ
8P	8viioD7/iv	24gL	24bb-L
.	.	24e	24gg
.	.	24c#JJ	24eeJJ
4P	4iv	8dL	24ffLL
.	.	.	24aa
.	.	.	24dddJ
*	*	*clefF4	*
.	.	8DJ 8d	24fffL
.	.	.	24eee
.	.	.	24dddJJ
=156	=156	=156	=156
4D	4V/iv	8A 8a	24ccc#LL
.	.	.	24eee
.	.	.	24dddJ
.	.	8r	24ccc#L
.	.	.	24bb
.	.	.	24aaJJ
*-	*-	*-	*-
!!!COM: Beethoven 
!!!OTL: 12 Variationen uber einen russichen Tanz von P. Wranitzky
!!!Variation: Variation 7 d
**function	**harm	**kern	**kern
*	*	*clefG2	*clefG2
*	*	*k[]	*k[]
*M2/4	*M2/4	*M2/4	*M2/4
*a:	*a:	*a:	*a:
4T	4i	24aLL	24cccLL
.	.	24cc	24bb
.	.	24eeJ	24aaJ
.	.	24aL	24eeeL
.	.	24cc	24ccc
.	.	24eeJJ	24aaJJ
=157	=157	=157	=157
4T	4VIb	24aLL	24cccLL
.	.	24cc	24bb
.	.	24ffJ	24aaJ
.	.	24aL	24fffL
.	.	24cc	24ccc
.	.	24ffJJ	24aaJJ
4T	4i	24aLL	24cccLL
.	.	24cc	24bb
.	.	24eeJ	24aaJ
.	.	24aL	24eeeL
.	.	24cc	24ccc
.	.	24eeJJ	24aaJJ
=158	=158	=158	=158
8T	8i	24aLL	24cccLL
.	.	24cc	24bb
.	.	24eeJ	24aaJ
4.T	4.viioD7b/V	24f#L	24ddd#L
.	.	24cc	24ccc
.	.	24dd#JJ	24aaJJ
.	.	24f#LL	24ddd#LL
.	.	24cc	24ccc
.	.	24dd#J	24aaJ
.	.	24f#L	24ddd#L
.	.	24cc	24ccc
.	.	24dd#JJ	24aaJJ
=159	=159	=159	=159
8T	8viioD7b/V	24f#LL	24ddd#LL
.	.	24cc	24ccc
.	.	24dd#J	24aaJ
4T	4V7	24g#L	24dddL
.	.	24b	24bb
.	.	24ddJJ	24eeJJ
.	.	24g#LL	24dddLL
.	.	24b	24bb
.	.	24ddJ	24eeJ
8T	8i	24aL	24cccL
.	.	24b	24aa
.	.	24ccJJ	24eeJJ
*	*	*clefF4	*
=160	=160	=160	=160
8P	8iiob	8DL 8d	24bbLL
.	.	.	24ff
.	.	.	24ddJ
8P	8viioD7/V	8D#J 8d#	24aaL
.	.	.	24ff#
.	.	.	24ccJJ
8D	8Cc	8EL 8e	24aaLL
.	.	.	24ee
.	.	.	24ccJ
8D	8V7	8EEJ 8E	24gg#L
.	.	.	24dd
.	.	.	24bJJ
=161	=161	=161	=161
4T	4i	8AAL	8a 8cc 8aa
.	.	8AJ	8r
*-	*-	*-	*-
!!!COM: Beethoven 
!!!OTL: 12 Variationen uber einen russichen Tanz von P. Wranitzky
!!!Variation: Variation 8 a
**function	**harm	**kern	**kern
*	*	*clefF4	*clefG2
*	*	*k[f#c#g#]	*k[f#c#g#]
*M2/4	*M2/4	*M2/4	*M2/4
*A:	*A:	*A:	*A:
*	*	*	*^
4T	4I	4r	(4c#	(8aL
.	.	.	.	8eJ
=162	=162	=162	=162	=162
4T	4V7	8r	4d	4b
.	.	8EE	.	.
4T	4Ib	4r	4c#	8aL
.	.	.	.	8eJ
=163	=163	=163	=163	=163
4T	4V7	8r	4B	4g#
.	.	8EE	.	.
4T	4viioD7c/V	4r	4A) 4c	8f#L
.	.	.	.	8d#J)
*	*	*	*v	*v
=164	=164	=164	=164
4T	4V	8r	(4G# 4B 4e
.	.	8EE	.
4T	4viioD7/vi	8r	4G# 4B 4d
.	.	8EE#	.
=165	=165	=165	=165
4P	4vi	8r	4A 4c#
.	.	8FF#	.
4P	4IV	8r	4A) 4d 4f#
.	.	8DD	.
=166	=166	=166	=166
4D	4V	8r	8G# 8B
.	.	8EE	8r
*-	*-	*-	*-
!!!COM: Beethoven 
!!!OTL: 12 Variationen uber einen russichen Tanz von P. Wranitzky
!!!Variation: Variation 8 b
**function	**harm	**kern	**kern
*	*	*clefF4	*clefG2
*	*	*k[f#c#g#]	*k[f#c#g#]
*M2/4	*M2/4	*M2/4	*M2/4
*A:	*A:	*A:	*A:
*	*	*	*^
4T	4Ib	4r	(4c#	(8aL
.	.	.	.	8eJ
=167	=167	=167	=167	=167
4T	4V7	8r	4d	4b
.	.	8EE	.	.
4T	4Ib	4r	4c#	8aL
.	.	.	.	8eJ
=168	=168	=168	=168	=168
4T	4V7	8r	4B	4g#
.	.	8EE	.	.
4T	4viioD7c/V	4r	4A) 4c	8f#L
.	.	.	.	8d#J)
*	*	*	*v	*v
=169	=169	=169	=169
4T	4V	8r	(4G# 4B 4e
.	.	8EE	.
4T	4viioD7/vi	8r	4G# 4B 4d
.	.	8EE#	.
=170	=170	=170	=170
4P	4vi	8r	4A 4c#
.	.	8FF#	.
4P	4IV	8r	4A) 4f#
.	.	8DD	.
*	*	*	*clefF4
=171	=171	=171	=171
8D	8V7	8EE'L	8D'L 8G#'
8T	8I	8AAA'J	8C#'J 8A'
*-	*-	*-	*-
!!!COM: Beethoven 
!!!OTL: 12 Variationen uber einen russichen Tanz von P. Wranitzky
!!!Variation: Variation 8 c
**function	**harm	**kern	**kern
*	*	*clefF4	*clefG2
*	*	*k[f#c#g#]	*k[f#c#g#]
*M2/4	*M2/4	*M2/4	*M2/4
*A:	*A:	*A:	*A:
*	*	*	*^
4T	4Ib	4r	(4c#	(8a#L
.	.	.	.	8eJ
=172	=172	=172	=172	=172
4T	4V7	8r	4d	4b
.	.	8E	.	.
4T	4Ib	4r	4c#	8aL
.	.	.	.	8eJ
=173	=173	=173	=173	=173
4T	4V7c	8r	4B)	4g#)
*	*	*clefG2	*	*
.	.	8ee	.	.
4T	4viiob/ii	4r	(4c#	(8a#L
.	.	.	.	8eJ
=174	=174	=174	=174	=174
8P	8ii	8r	4d	4b
*	*	*clefF4	*	*
8D	8V7	8E	.	.
4D	4Ib	4r	4c#	8aL
.	.	.	.	8eJ
=175	=175	=175	=175	=175
4D	4V7	8r	4B)	4g#)
*	*	*clefG2	*	*
.	.	8ee	.	.
*-	*-	*-	*-	*-
!!!COM: Beethoven 
!!!OTL: 12 Variationen uber einen russichen Tanz von P. Wranitzky
!!!Variation: Variation 8 d
**function	**harm	**kern	**kern
*	*	*clefF4	*clefG2
*	*	*k[f#c#g#]	*k[f#c#g#]
*M2/4	*M2/4	*M2/4	*M2/4
*A:	*A:	*A:	*A:
*	*	*	*^
4T	4Ib	4r	(4c#	(8aL
.	.	.	.	8eJ
=176	=176	=176	=176	=176
4T	4V7	8r	4d	4b
.	.	8EE	.	.
4T	4Ib	4r	4c#	8aL
.	.	.	.	8eJ
=177	=177	=177	=177	=177
4T	4V7	8r	4B	4g#
.	.	8EE	.	.
4T	4viioD7c/V	4r	4A) 4c	8f#L
.	.	.	.	8d#J)
*	*	*	*v	*v
=178	=178	=178	=178
4T	4V	8r	(4G# 4B 4e
.	.	8EE	.
4T	4viioD7/vi	8r	4G# 4B 4d
.	.	8EE#	.
=179	=179	=179	=179
4P	4vi	8r	4A 4c#
.	.	8FF#	.
4P	4IV	8r	4A) 4f#
.	.	8DD	.
*	*	*	*clefF4
=180	=180	=180	=180
8D	8V7	8EE'L	8D'L 8G#'
8T	8I	8AAA'J	8C#'J 8A'
*-	*-	*-	*-
!!!COM: Beethoven 
!!!OTL: 12 Variationen uber einen russichen Tanz von P. Wranitzky
!!!Variation: Variation 9 a
**function	**harm	**kern	**kern
*	*	*clefF4	*clefG2
*	*	*k[f#c#g#]	*k[f#c#g#]
*M2/4	*M2/4	*M2/4	*M2/4
*A:	*A:	*A:	*A:
4D	4V	8r	(8cc#L 8ee
.	.	(32EELLL	8eJ
.	.	32DD#	.
.	.	32EE	.
.	.	32DD#JJJ	.
=181	=181	=181	=181
4D	4V7	8EE')	8bL 8dd
.	.	(32ELLL	8eJ
.	.	32D#	.
.	.	32E	.
.	.	32D#JJJ	.
4D	4Ic	8E')	8aL 8cc#
*	*	*clefG2	*
.	.	(32eeLLL	8eJ
.	.	32dd#	.
.	.	32ee	.
.	.	32dd#JJJ	.
=182	=182	=182	=182
4D	4V	8ee')	8g#L 8b
.	.	(32eeeLLL	8eJ
.	.	32ddd#	.
.	.	32eee	.
.	.	32ddd#JJJ	.
4D	4V7d	8eee')	8dL 8g#
.	.	8r	8eJ)
=183	=183	=183	=183
*	*	*	*^
*	*	*clefF4	*	*
8T	8Ib	8r	4.c#	([2a
*	*	*^	*	*
4T	4I	(8A	[4.A	.	.
.	.	8G#L	.	.	.
8T	8V7d/IV	8GJ	.	[8d	.
=184	=184	=184	=184	=184	=184
4P	4IVb	4F#	4A]	4d]	8aL]
.	.	.	.	.	8g#J
*	*	*v	*v	*	*
4P	4Lt	4F) 4A	4d#	8aL
.	.	.	.	8bJ
*	*	*	*v	*v
=185	=185	=185	=185
4D	4V	4E 4B	8g#L
.	.	.	8eJ
*-	*-	*-	*-
!!!COM: Beethoven 
!!!OTL: 12 Variationen uber einen russichen Tanz von P. Wranitzky
!!!Variation: Variation 9 b
**function	**harm	**kern	**kern
*	*	*clefF4	*clefG2
*	*	*k[f#c#g#]	*k[f#c#g#]
*M2/4	*M2/4	*M2/4	*M2/4
*A:	*A:	*A:	*A:
4D	4V	8r	8cc#L 8ee
.	.	(32EELLL	8eJ
.	.	32DD#	.
.	.	32EE	.
.	.	32DD#JJJ	.
=186	=186	=186	=186
4D	4V7	8EE')	8bL 8dd
.	.	(32ELLL	8eJ
.	.	32D#	.
.	.	32E	.
.	.	32D#JJJ	.
4D	4Ic	8E')	8aL 8cc#
*	*	*clefG2	*
.	.	(32eeLLL	8eJ
.	.	32dd#	.
.	.	32ee	.
.	.	32dd#JJJ	.
=187	=187	=187	=187
4D	4V	8ee')	8g#L 8b
.	.	(32eeeLLL	8eJ
.	.	32ddd#	.
.	.	32eee	.
.	.	32ddd#JJJ	.
4D	4V7d	8eee')	8dL 8g#
.	.	8r	8eJ)
=188	=188	=188	=188
8T	8Ib	8r	4.c# 4.a
*	*	*clefF4	*
*	*	*^	*
4T	4I	(8A	[4.A	.
.	.	8GL	.	.
*	*	*	*	*^
*	*	*	*	*	*^
8P	8ii7c	8F#J	.	[8d	[8a	([8b
=189	=189	=189	=189	=189	=189	=189
8P	8iiom7c	8F)	4A]	8d]	4a]	8bL]
8D	8Cc	4.E	.	4.e	.	8cc#
4D	4V7	.	8BL	.	4g#	8dd
.	.	.	8dJ	.	.	8bJ
*	*	*v	*v	*	*	*
*	*	*	*	*v	*v
*	*	*	*v	*v
=190	=190	=190	=190
4T	4I	8AL 8c#	4a)
.	.	8AAJ	.
*-	*-	*-	*-
!!!COM: Beethoven 
!!!OTL: 12 Variationen uber einen russichen Tanz von P. Wranitzky
!!!Variation: Variation 9 c
**function	**harm	**kern	**kern
*	*	*clefF4	*clefG2
*	*	*k[f#c#g#]	*k[f#c#g#]
*M2/4	*M2/4	*M2/4	*M2/4
*A:	*A:	*A:	*A:
*	*	*	*^
4T	4I	8r	(8gL	[4ee
.	.	(32AAALLL	8aJ	.
.	.	32GGG#	.	.
.	.	32AAA	.	.
.	.	32GGG#JJJ	.	.
=191	=191	=191	=191	=191
4T	4vib	8AAA')	8f#L	4ee]
.	.	(32AALLL	8aJ	.
.	.	32GG#	.	.
.	.	32AA	.	.
.	.	32GG#JJJ	.	.
4T	4ivc	8AA')	8fL	4dd
.	.	(32ALLL	8aJ	.
.	.	32G#	.	.
.	.	32A	.	.
.	.	32G#JJJ	.	.
=192	=192	=192	=192	=192
4T	4I	8A')	8eL	4cc#
.	.	8r	8aJ)	.
8T	8vb	8r	(8gL	[4ee
*	*	*clefG2	*	*
8T	8I	(32aaLLL	8aJ	.
.	.	32gg#	.	.
.	.	32aa	.	.
.	.	32gg#JJJ	.	.
=193	=193	=193	=193	=193
4T	4vi	8aa'L)	8f#L	4ee]
.	.	(32aaLL	8aJ	.
.	.	32gg#	.	.
.	.	32aa	.	.
.	.	32gg#JJJ	.	.
4T	4ivb	8aa'L)	8fL	4dd
.	.	(32aaLL	8aJ	.
.	.	32gg#	.	.
.	.	32aa	.	.
.	.	32gg#JJJ	.	.
=194	=194	=194	=194	=194
4T	4Ib	8aa')	8eL	4cc#
.	.	8r	8aJ)	.
*	*	*	*v	*v
*-	*-	*-	*-
!!!COM: Beethoven 
!!!OTL: 12 Variationen uber einen russichen Tanz von P. Wranitzky
!!!Variation: Variation 9 d
**function	**harm	**kern	**kern
*	*	*clefF4	*clefG2
*	*	*k[f#c#g#]	*k[f#c#g#]
*M2/4	*M2/4	*M2/4	*M2/4
*A:	*A:	*A:	*A:
4D	4V	8r	(8cc#L 8ee
.	.	(32EELLL	8eJ
.	.	32DD#	.
.	.	32EE	.
.	.	32DD#JJJ	.
=195	=195	=195	=195
4D	4V7	8EE')	8bL 8dd
.	.	(32ELLL	8eJ
.	.	32D#	.
.	.	32E	.
.	.	32D#JJJ	.
4D	4Ic	8E')	8aL 8cc#
*	*	*clefG2	*
.	.	(32eeLLL	8eJ
.	.	32dd#	.
.	.	32ee	.
.	.	32dd#JJJ	.
=196	=196	=196	=196
4D	4V	8ee')	8g#L 8b
.	.	(32eeeLLL	8eJ
.	.	32ddd#	.
.	.	32eee	.
.	.	32ddd#JJJ	.
4D	4V7d	8eee')	8dL 8g#
.	.	8r	8eJ)
=197	=197	=197	=197
8T	8Ib	8r	4.c# 4.a
*	*	*clefF4	*
*	*	*^	*
4T	4I	(8A	[4.A	.
.	.	8GL	.	.
*	*	*	*	*^
*	*	*	*	*	*^
8P	8ii7c	8F#J	.	[8d	[8a	([8b
=198	=198	=198	=198	=198	=198	=198
8P	8iiom7c	8F)	4A]	8d]	4a]	8bL]
8D	8Cc	4.E	.	4.e	.	8cc#
4D	4V7	.	8BL	.	4g#	8dd
.	.	.	8dJ	.	.	8bJ
*	*	*v	*v	*	*	*
*	*	*	*	*v	*v
*	*	*	*v	*v
=199	=199	=199	=199
4T	4I	8AL 8c#	4a)
.	.	8AAJ	.
*-	*-	*-	*-
!!!COM: Beethoven 
!!!OTL: 12 Variationen uber einen russichen Tanz von P. Wranitzky
!!!Variation: Variation 10 a
**function	**harm	**kern	**kern
*	*	*clefF4	*clefG2
*	*	*k[f#c#g#]	*k[f#c#g#]
*M2/4	*M2/4	*M2/4	*M2/4
*A:	*A:	*A:	*A:
8T	8I	8r	24aLL
.	.	.	24cc#
.	.	.	24aJ
8T	8V7/IV	[8AAA	24gL
.	.	.	24ee
.	.	.	24gJJ
=200	=200	=200	=200
*	*	*^	*
8T	8vi7	8AAA]	4r	24f#LL
.	.	.	.	24ee
.	.	.	.	24f#J
8T	8ii7d	[4.AA	.	24bL
.	.	.	.	24dd
.	.	.	.	24bJJ
8T	8V7	.	8r	24eLL
.	.	.	.	24dd
.	.	.	.	24eJ
8T	8I	.	[8A	24aL
.	.	.	.	24cc#
.	.	.	.	24aJJ
*	*	*v	*v	*
=201	=201	=201	=201
8T	8IV7	2AA_ 2A_	24dLL
.	.	.	24cc#
.	.	.	24dJ
8T	8I	.	24aL
.	.	.	24b
.	.	.	24aJJ
8T	8ii7d	.	24dLL
.	.	.	24b
.	.	.	24dJ
8T	8Vb	.	24gL
.	.	.	24ee
.	.	.	24gJJ
=202	=202	=202	=202
8T	8I	4.AA] 4.A]	24c#LL
.	.	.	24a
.	.	.	24c#J
8T	8V	.	24eL
.	.	.	24b
.	.	.	24eJJ
8T	8I	.	24aLL
.	.	.	24cc#
.	.	.	24aJ
8T	8Vb	8G#'	24bL
.	.	.	24ee
.	.	.	24bJJ
=203	=203	=203	=203
8T	8I	8A'L	24cc#LL
.	.	.	24aa
.	.	.	24cc#J
8T	8V7b	8G#'J	24eeL
.	.	.	24bb
.	.	.	24eeJJ
8P	8vi	8F#'L	24aaLL
.	.	.	24ccc#
.	.	.	24aaJ
8P	8V7/V	8B'J	24ddd#L
.	.	.	24aa
.	.	.	24ddd#JJ
=204	=204	=204	=204
4D	4V	8EL	8gg# 8eee
.	.	8EEJ	8r
*-	*-	*-	*-
!!!COM: Beethoven 
!!!OTL: 12 Variationen uber einen russichen Tanz von P. Wranitzky
!!!Variation: Variation 10 b
**function	**harm	**kern	**kern
*	*	*clefF4	*clefG2
*	*	*k[f#c#g#]	*k[f#c#g#]
*M2/4	*M2/4	*M2/4	*M2/4
*A:	*A:	*A:	*A:
8T	8I	8r	24aLL
.	.	.	24cc#
.	.	.	24aJ
8T	8V7/IV	[8AAA	24gL
.	.	.	24ee
.	.	.	24gJJ
=205	=205	=205	=205
*	*	*^	*
8T	8vi7	8AAA]	4r	24f#LL
.	.	.	.	24ee
.	.	.	.	24f#J
8T	8ii7d	[4.AA	.	24bL
.	.	.	.	24dd
.	.	.	.	24bJJ
8T	8V7	.	8r	24eLL
.	.	.	.	24dd
.	.	.	.	24eJ
8T	8I	.	[8A	24aL
.	.	.	.	24cc#
.	.	.	.	24aJJ
*	*	*v	*v	*
=206	=206	=206	=206
8T	8IV7	2AA_ 2A_	24dLL
.	.	.	24cc#
.	.	.	24dJ
8T	8I	.	24aL
.	.	.	24b
.	.	.	24aJJ
8T	8ii7d	.	24dLL
.	.	.	24b
.	.	.	24dJ
8T	8Vb	.	24gL
.	.	.	24ee
.	.	.	24gJJ
=207	=207	=207	=207
8T	8I	4.AA] 4.A]	24c#LL
.	.	.	24a
.	.	.	24c#J
8T	8V	.	24eL
.	.	.	24b
.	.	.	24eJJ
8T	8I	.	24aLL
.	.	.	24cc#
.	.	.	24aJ
8T	8Vb	8G#'	24bL
.	.	.	24ee
.	.	.	24bJJ
=208	=208	=208	=208
8T	8I	8A'L	24cc#LL
.	.	.	24aa
.	.	.	24cc#J
8P	8iib	8D'J	24ddL
.	.	.	24bb
.	.	.	24ddJJ
8D	8Cc	8E'L	24cc#LL
.	.	.	24aa
.	.	.	24cc#J
8D	8V	8EE'J	24bL
.	.	.	24gg#
.	.	.	24bJJ
=209	=209	=209	=209
4T	4I	8AAL	8cc# 8aa
.	.	8AJ	8r
*-	*-	*-	*-
!!!COM: Beethoven 
!!!OTL: 12 Variationen uber einen russichen Tanz von P. Wranitzky
!!!Variation: Variation 10 c
**function	**harm	**kern	**kern
*	*	*clefF4	*clefG2
*	*	*k[f#c#g#]	*k[f#c#g#]
*M2/4	*M2/4	*M2/4	*M2/4
*A:	*A:	*A:	*A:
4T	4Ib	8r	24eeLL
.	.	.	24dd#
.	.	.	24eeJ
.	.	8c# 8e 8a	24eeeL
.	.	.	24ddd#
.	.	.	24eeeJJ
=210	=210	=210	=210
4T	4Vb	8r	24eeLL
.	.	.	24dd#
.	.	.	24eeJ
.	.	8B 8d 8g#	24eeeL
.	.	.	24ddd#
.	.	.	24eeeJJ
4T	4I	8r	24eeLL
.	.	.	24dd#
.	.	.	24eeJ
.	.	8A 8c# 8a	24eeeL
.	.	.	24ddd#
.	.	.	24eeeJJ
=211	=211	=211	=211
4T	4V	8r	24eeLL
.	.	.	24dd#
.	.	.	24eeJ
.	.	8E 8G# 8B 8e	24eeeL
.	.	.	24ddd#
.	.	.	24eeeJJ
4T	4Ib	8r	24eeLL
.	.	.	24dd#
.	.	.	24eeJ
.	.	8C# 8E 8A	24eeeL
.	.	.	24ddd#
.	.	.	24eeeJJ
=212	=212	=212	=212
4T	4V7b	8r	24eeLL
.	.	.	24dd#
.	.	.	24eeJ
.	.	8BB 8D 8G#	24eeeL
.	.	.	24ddd#
.	.	.	24eeeJJ
4T	4I	8r	24eeLL
.	.	.	24dd#
.	.	.	24eeJ
.	.	8AA 8C# 8A	24eeeL
.	.	.	24ddd#
.	.	.	24eeeJJ
=213	=213	=213	=213
4D	4V	8r	24eeLL
.	.	.	24dd#
.	.	.	24eeJ
.	.	8EE 8GG# 8BB 8E	24eeeL
.	.	.	24ddd#
.	.	.	24eeeJJ
*-	*-	*-	*-
!!!COM: Beethoven 
!!!OTL: 12 Variationen uber einen russichen Tanz von P. Wranitzky
!!!Variation: Variation 10 d
**function	**harm	**kern	**kern
*	*	*clefF4	*clefG2
*	*	*k[f#c#g#]	*k[f#c#g#]
*M2/4	*M2/4	*M2/4	*M2/4
*A:	*A:	*A:	*A:
8T	8I	8r	24aaLL
.	.	.	24ccc#
.	.	.	24aaJ
8T	8V7/IV	[8AAA	24ggL
.	.	.	24eee
.	.	.	24ggJJ
=214	=214	=214	=214
*	*	*^	*
8T	8vib	8AAA]	4r	24ff#LL
.	.	.	.	24eee
.	.	.	.	24ff#J
8T	8ii7d	[4.AA	.	24bbL
.	.	.	.	24ddd
.	.	.	.	24bbJJ
8T	8V7	.	8r	24eeLL
.	.	.	.	24ddd
.	.	.	.	24eeJ
8T	8I	.	[8A	24aaL
.	.	.	.	24ccc#
.	.	.	.	24aaJJ
=215	=215	=215	=215	=215
8T	8IV7c	8r	2A_	24ddLL
.	.	.	.	24ccc#
.	.	.	.	24ddJ
8T	8I	[4.a	.	24aaL
.	.	.	.	24bb
.	.	.	.	24aaJJ
8T	8ii7d	.	.	24ddLL
.	.	.	.	24bb
.	.	.	.	24ddJ
8T	8Vb	.	.	24ggL
.	.	.	.	24eee
.	.	.	.	24ggJJ
=216	=216	=216	=216	=216
8T	8I	4.a]	4.A]	24cc#LL
.	.	.	.	24aa
.	.	.	.	24cc#J
8T	8V	.	.	24eeL
.	.	.	.	24bb
.	.	.	.	24eeJJ
8T	8I	.	.	24aaLL
.	.	.	.	24ccc#
.	.	.	.	24aaJ
*	*	*v	*v	*
8T	8V	8g#'	24bbL
.	.	.	24eee
.	.	.	24bbJJ
=217	=217	=217	=217
8T	8I	8a'L	24aaLL
.	.	.	24ccc#
.	.	.	24aaJ
8P	8iib	8d'J	24bbL
.	.	.	24ddd
.	.	.	24bbJJ
8D	8Cc	8e'L	24aaLL
.	.	.	24ccc#
.	.	.	24aaJ
8D	8V	8E'J	24gg#L
.	.	.	24bb
.	.	.	24gg#JJ
=218	=218	=218	=218
4T	4I	8A'L	4aa
.	.	8AA'J	.
*-	*-	*-	*-
!!!COM: Beethoven 
!!!OTL: 12 Variationen uber einen russichen Tanz von P. Wranitzky
!!!Variation: Variation 11 a
**function	**harm	**kern	**kern
*	*	*clefF4	*clefG2
*	*	*k[]	*k[]
*M2/4	*M2/4	*M2/4	*M2/4
*a:	*a:	*a:	*a:
4T	4i	(8AAL	(4A' 4c' 4e'
.	.	8EJ	.
=219	=219	=219	=219
4T	4V7b	8GG#L	4B' 4d' 4e'
.	.	8EJ	.
4T	4i	8AAL	4A') 4c' 4e'
.	.	8EJ)	.
=220	=220	=220	=220
*	*	*	*^
2T	2V7d	(8DL	2G# 2B	(4.f
.	.	8EJ	.	.
.	.	8DL	.	.
.	.	8EJ)	.	8e)
=221	=221	=221	=221	=221
*	*	*^	*	*
4T	4ib	(8CL	4A	4e	4.a
.	.	8EJ	.	.	.
4T	4V7c	8BBL	4G#	4d	.
.	.	8EJ)	.	.	(8b
=222	=222	=222	=222	=222	=222
4T	4i	4AA	8AL	4c	8ccL
.	.	.	8EJ	.	8bJ
4T	4viioD7/V	4D#	8AL	4f#	8ccL
.	.	.	8F#J	.	8aJ)
=223	=223	=223	=223	=223	=223
4D	4V	4E	8G#L	4e	(8g#L
.	.	.	8BJ	.	8bJ)
*	*	*	*	*v	*v
*	*	*v	*v	*
*-	*-	*-	*-
!!!COM: Beethoven 
!!!OTL: 12 Variationen uber einen russichen Tanz von P. Wranitzky
!!!Variation: Variation 11 b
**function	**harm	**kern	**kern
*	*	*clefF4	*clefG2
*	*	*k[]	*k[]
*M2/4	*M2/4	*M2/4	*M2/4
*a:	*a:	*a:	*a:
4T	4i	(8AAL	(4A' 4c' 4e'
.	.	8EJ	.
=224	=224	=224	=224
4T	4V7b	8GG#L	4B' 4d' 4e'
.	.	8EJ	.
4T	4i	8AAL	4A') 4c' 4e'
.	.	8EJ)	.
=225	=225	=225	=225
*	*	*	*^
2T	2V7d	(8DL	2G# 2B	(4.f
.	.	8EJ	.	.
.	.	8DL	.	.
.	.	8EJ)	.	8e)
=226	=226	=226	=226	=226
4T	4ib	8CL	4e	(4.a
.	.	8AJ	.	.
4P	4iiom7c	8FL	4d	.
.	.	8AJ	.	8b
=227	=227	=227	=227	=227
4D	4Cc	8EL	4e	8.ccL
.	.	8AJ	.	.
.	.	.	.	16ddJk
4D	4V7	8EL	4d	8.bL
.	.	8G#J	.	.
.	.	.	.	16ccJk)
=228	=228	=228	=228	=228
*	*	*^	*	*
2D	2i	[4AA	8AAL	4c	4a
.	.	.	8AJ	.	.
*	*	*	*	*v	*v
*	*	*v	*v	*
*-	*-	*-	*-
!!!COM: Beethoven 
!!!OTL: 12 Variationen uber einen russichen Tanz von P. Wranitzky
!!!Variation: Variation 11 c
**function	**harm	**kern	**kern
*	*	*clefF4	*clefG2
*	*	*k[]	*k[]
*M2/4	*M2/4	*M2/4	*M2/4
*a:	*a:	*a:	*a:
*	*	*^	*
4T	4Ib	4AA_	8FL	8r
.	.	.	8AJ	8d 8dd
=229	=229	=229	=229	=229
4T	4V7/iv	2AA]	8EL 8G	(8dL 8dd
.	.	.	8AJ	8c#J 8cc#
4T	4ivc	.	8DL 8F	8dL 8dd
.	.	.	8AJ	8fJ) 8ff
=230	=230	=230	=230	=230
4T	4I	[2AA	8C#L 8E	4.a 4.aa
.	.	.	8AJ	.
4T	4ivc	.	8FL	.
.	.	.	8AJ	8dd 8ddd
=231	=231	=231	=231	=231
4T	4V7/iv	2AA_	8EL 8G	(8ddL 8ddd
.	.	.	8AJ	8cc#J 8ccc#
4T	4ivc	.	8DL 8F	8ddL 8ddd
.	.	.	8AJ	8ffJ) 8fff
=232	=232	=232	=232	=232
4T	4I	4AA]	8C#L 8E	4ee 4eee
.	.	.	8AJ	.
*	*	*v	*v	*
*-	*-	*-	*-
!!!COM: Beethoven 
!!!OTL: 12 Variationen uber einen russichen Tanz von P. Wranitzky
!!!Variation: Variation 11 d
**function	**harm	**kern	**kern
*	*	*clefF4	*clefG2
*	*	*k[]	*k[]
*M2/4	*M2/4	*M2/4	*M2/4
*a:	*a:	*a:	*a:
*	*	*^	*
4P	4i	4AA	8CL	(4ee' 4eee'
.	.	.	8EJ	.
=233	=233	=233	=233	=233
4D	4V7b	4GG#	8DL	4ee' 4eee'
.	.	.	8EJ	.
4T	4i	4AA	8CL	4ee') 4eee'
.	.	.	8EJ	.
=234	=234	=234	=234	=234
2T	2V7d	8DL	2G#	(4.ff 4.fff
.	.	8EJ	.	.
.	.	8DL	.	.
.	.	8EJ	.	8ee) 8eee
=235	=235	=235	=235	=235
4T	4ib	4C	8AL	(4.a 4.aa
.	.	.	8EJ	.
4P	4iiob	4D	8BL	.
.	.	.	8FJ	8b) 8bb
=236	=236	=236	=236	=236
4D	4Cc	4E	8cL	(8.ccL 8.ccc
.	.	.	8AJ	.
.	.	.	.	16ddJk) 16ddd
4D	4V	4E	8BL	(8.bL 8.bb
.	.	.	8G#J	.
.	.	.	.	16ccJk) 16ccc
=237	=237	=237	=237	=237
2T	2i	2AA;	2A;	2a; 2aa;
*	*	*v	*v	*
.	.	.	q12r
.	.	.	(q12e'
.	.	.	q12f#'
.	.	.	q12g#'
.	.	.	q12a'
.	.	.	q12b')
*-	*-	*-	*-
!!!COM: Beethoven 
!!!OTL: 12 Variationen uber einen russichen Tanz von P. Wranitzky
!!!Variation: Variation 12 a
**function	**harm	**kern	**kern
*	*	*clefF4	*clefG2
*	*	*k[f#c#g#]	*k[f#c#g#]
*M6/8	*M6/8	*M6/8	*M6/8
*A:	*A:	*A:	*A:
4.T	4.I	(4a	(4cc#
.	.	8g	8ee
=238	=238	=238	=238
*	*	*^	*
4.T	4.IVc	2.A	4f#	4dd
.	.	.	8g#	8ee
4.T	4.I	.	4a	4cc#
.	.	.	8c#	8ee
=239	=239	=239	=239	=239
2.T	2.V7d	2.A	4d	4b
.	.	.	8c#	8ee
.	.	.	4d	4b
.	.	.	8e)	8cc#)
=240	=240	=240	=240	=240
2.T	2.I	4.A	(8c#L	([4.a
.	.	.	8e	.
.	.	.	8dJ	.
*	*	*v	*v	*
.	.	8c#L	8aL]
.	.	8B	8b
.	.	8AJ)	8cc#J)
=241	=241	=241	=241
4.T	4.V7b	8G#L	(8eeL
.	.	8F#	8dd)
.	.	8EJ	8b'J
4.T	4.I	8AL	(8ddL
.	.	8c#	8cc#)
.	.	8d#J	8a'J
=242	=242	=242	=242
4.D	4.V	4e	(4a 4cc#
.	.	8r	8g#) 8b
*-	*-	*-	*-
!!!COM: Beethoven 
!!!OTL: 12 Variationen uber einen russichen Tanz von P. Wranitzky
!!!Variation: Variation 12 b
**function	**harm	**kern	**kern
*	*	*clefF4	*clefG2
*	*	*k[f#c#g#]	*k[f#c#g#]
*M6/8	*M6/8	*M6/8	*M6/8
*A:	*A:	*A:	*A:
4.T	4.I	8r	(4cc#
.	.	(8aL	.
.	.	8gJ	8ee)
=243	=243	=243	=243
*	*	*^	*
4.T	4.IVc	2.A	4f#	(8eeL
.	.	.	.	8dd)
.	.	.	8g#	8ee'J
4.T	4.I	.	4a	(8eeL
.	.	.	.	8cc#)
.	.	.	8c#	8ee'J
=244	=244	=244	=244	=244
2.T	2.V7d	2.A	4d	(8eeL
.	.	.	.	8b)
.	.	.	8c#	8ee'J
.	.	.	4d	(8eeL
.	.	.	.	8b)
.	.	.	8e)	8cc#'J
*	*	*v	*v	*
=245	=245	=245	=245
2.T	2.Ib	(8c#L	4a
.	.	8e	.
.	.	8dJ	8b
.	.	8c#L	8a'L 8cc#'
.	.	8B	8b' 8dd'
.	.	8AJ)	8cc#'J 8ee'
=246	=246	=246	=246
4P	4iib	(4D	(8cc#L 8ee
.	.	.	8b) 8dd
8P	8viiom7/V	8D#	8a'J 8cc#'
4D	4Cc	4E	(4a 4cc#
8D	8V	8EE)	8g#) 8b
=247	=247	=247	=247
4.T	4.I	4AA	4a
.	.	8A	8r
*-	*-	*-	*-
!!!COM: Beethoven 
!!!OTL: 12 Variationen uber einen russichen Tanz von P. Wranitzky
!!!Variation: Variation 12 c
**function	**harm	**kern	**kern
*	*	*clefG2	*clefG2
*	*	*k[f#c#g#]	*k[f#c#g#]
*M6/8	*M6/8	*M6/8	*M6/8
*A:	*A:	*A:	*A:
4T	4Ib	(4cc#	8r
.	.	.	(8eeL
8T	8viio/ii	8a#)	8ccc#J)
=248	=248	=248	=248
*	*	*	*^
4T	4ii	4b	8r	(4ccc#
.	.	.	4dd	.
8T	8viio	8g#	.	8bb)
4T	4I	4a	8r	(4bb
.	.	.	4cc#	.
8T	8viioD7/V	8d#	.	8aa)
=249	=249	=249	=249	=249
4T	4V7	4e	8r	(4aa
.	.	.	4b	.
8T	8V7d	8d	.	8gg#)
*	*	*clefF4	*	*
4T	4Ib	(8c#L	[4.ee	8eeL
.	.	8B	.	8ccc#
8T	8viio/ii	8A#J	.	8ccc#J
=250	=250	=250	=250	=250
4P	4ii	8BL	8ee]	4ccc#
.	.	8A	[4dd	.
8D	8viio	8G#J	.	8bb
4.D	4.viiom7/V	8AL	8dd]	4bb
.	.	8F#	([4cc#	.
.	.	8D#J)	.	8aa
=251	=251	=251	=251	=251
4.D	4.V7	4E	8cc#L]	8aaL
.	.	.	8b	8gg#J
.	.	8r	8ddJ)	8r
*	*	*	*v	*v
*-	*-	*-	*-
!!!COM: Beethoven 
!!!OTL: 12 Variationen uber einen russichen Tanz von P. Wranitzky
!!!Variation: Variation 12 d
**function	**harm	**kern	**kern
*	*	*clefF4	*clefG2
*	*	*k[f#c#g#]	*k[f#c#g#]
*M6/8	*M6/8	*M6/8	*M6/8
*A:	*A:	*A:	*A:
*	*	*^	*
4T	4I	4.AA	(4A	8r
.	.	.	.	8cc#'L 8ccc#'
8T	8V7/IV	.	8G	8ee'J 8eee'
=252	=252	=252	=252	=252
4.T	4.IVc	2.AA	4F#	8ee'L 8eee'
.	.	.	.	8dd' 8ddd'
.	.	.	8G#	8ee'J 8eee'
4.T	4.I	.	4A	8ee'L 8eee'
.	.	.	.	8cc#' 8ccc#'
.	.	.	8C#	8ee'J 8eee'
=253	=253	=253	=253	=253
2.T	2.V7d	2.AA	4D	8eeL 8eee
.	.	.	.	8b 8bb
.	.	.	8C#	8eeJ 8eee
.	.	.	4D	8eeL 8eee
.	.	.	.	8b 8bb
.	.	.	8E)	8cc#J 8ccc#
*	*	*v	*v	*
=254	=254	=254	=254
2.T	2.I	(4AA 4C#	16r
.	.	.	16aLL
.	.	.	16b
.	.	.	16cc#
.	.	8BB)	16dd
.	.	.	16eeJJ
.	.	4AA'	(24ff#LL
.	.	.	24gg#
.	.	.	24aa
.	.	.	24bb
.	.	.	24ccc#
.	.	.	24dddJ)
.	.	8GG'	8eeeJ
=255	=255	=255	=255
4P	4iib	4FF#	8eeL 8ccc# 8eee
.	.	.	8dd 8bb 8ddd
8P	8viiom7/V	8DD#	8cc#J 8aa 8ccc#
*	*	*^	*
4D	4Cc	4.EE	4EE	4cc# 4aa 4ccc#
8D	8V7	.	8D	8b 8gg# 8bb
=256	=256	=256	=256	=256
4.T	4.I	4AA	4C#	4a 4aa
.	.	8r	8A	8r
*	*	*v	*v	*
*-	*-	*-	*-
!!!COM: Beethoven 
!!!OTL: 12 Variationen uber einen russichen Tanz von P. Wranitzky
!!!Variation: Variation 12 e
**function	**harm	**kern	**kern
*	*	*clefG2	*clefG2
*	*	*k[f#c#g#]	*k[f#c#g#]
*M6/8	*M6/8	*M6/8	*M6/8
*A:	*A:	*A:	*A:
4.T	4.Ib	(4cc#	8r
.	.	.	8aa'L
.	.	8ee	8aa'J
=257	=257	=257	=257
4.T	4.V7d	4dd	(8aaL
.	.	.	16gg#L
.	.	.	16ff#J
.	.	8ee	8gg#J)
4.T	4.Ib	4cc#	8r
.	.	.	8aa'L
.	.	8ee	8aa'J
=258	=258	=258	=258
*	*	*	*^
4.T	4.V7c	4b	(8aaL	4.ddd
.	.	.	16gg#L	.
.	.	.	16ff#J	.
.	.	8ee	8gg#J)	.
*	*	*	*v	*v
4.T	4.vib	4a	8r
.	.	.	8ccc#'L
.	.	8cc#	8ff#'J
=259	=259	=259	=259
4.P	4.ii7/vi	4g#	8r
.	.	.	8bb'L
.	.	8dd	8ff#'J
4.D	4.V7/vi	4c#	8r
.	.	.	8bb'L
.	.	8cc#)	8ee#'J
=260	=260	=260	=260
2.T	2.i/vi	(16aLL	8r
.	.	16b	.
.	.	16a	8ff#'L
.	.	16g#J	.
.	.	8f#J)	8gg#'J
.	.	8r	(4aa
.	.	8ff#'L	.
.	.	8ff#'J	8ccc#
=261	=261	=261	=261
4.T	4.V7b/vi	(8ff#L	4bb
.	.	16ee#L	.
.	.	16dd#J	.
.	.	8ee#J)	8ccc#
4.T	4.i/vi	8r	4aa
.	.	8ff#'L	.
.	.	8ff#'J	8ccc#
=262	=262	=262	=262
2.T	2.ib/v/vi	(8ff#L	4gg#
.	.	16eeL	.
.	.	16dd#J	.
.	.	8eeJ)	8ccc#
.	.	8r	4gg#
.	.	8ee'L	.
.	.	8ee'J	8ccc#
=263	=263	=263	=263
4.P	4.ii7/v/vi	8r	4ff#
.	.	8dd#'L	.
.	.	8dd#'J	8ccc#
4.D	4.V7/v/vi	8r	4ff#
.	.	8g#'L	.
.	.	8g#'J	8bb#)
=264	=264	=264	=264
*	*	*	*^
4.T	4.i/v/vi	4cc#	(16eeLL	4ccc#
.	.	.	16ff#	.
.	.	.	16ee	.
.	.	.	16dd#J	.
.	.	8r	8cc#J)	8r
*	*	*clefF4	*	*
4.T	4.ib/v/vi	(4E	4.c# 4.g#	8r
.	.	.	.	8cc#'L
.	.	8G#	.	8cc#'J
=265	=265	=265	=265	=265
4.T	4.V7d/v/vi	4F#	4.d# 4.g#	(8cc#L
.	.	.	.	16b#L
.	.	.	.	16a#J
.	.	8G#	.	8b#J)
4.T	4.ib/v/vi	4E	4.c# 4.g#	8r
.	.	.	.	8cc#'L
.	.	8G#	.	8cc#'J
=266	=266	=266	=266	=266
4.P	4.viiob/v/vi	4D#	4.f# 4.ff#	(8cc#L
.	.	.	.	16b#L
.	.	.	.	16a#J
.	.	8G#	.	8b#J)
4.P	4.Fr/vi	4D	8r	8r
.	.	.	8b#L	8ff#L
.	.	8G#)	8b#J	8ff#J
=267	=267	=267	=267	=267
2.D	2.V7/vi	(4C#	4.b	(8ff#L
.	.	.	.	16ee#L
.	.	.	.	16dd#J
.	.	8G#	.	8ee#J)
.	.	4C#	8r	([4.bb
.	.	.	8ee#L	.
.	.	8c#)	8ee#J	.
=268	=268	=268	=268	=268
2.T	2.V7/ii	(4F#	4.ee	8bbL]
.	.	.	.	16aa#L
.	.	.	.	16gg#J
.	.	8c#	.	8aa#J)
.	.	4F#	4.aa#	8r
.	.	.	.	8eeeL
.	.	8f#)	.	8eeeJ
=269	=269	=269	=269	=269
2.P	2.V7/V	(4BB	4.aa	(8eeeL
.	.	.	.	16ddd#L
.	.	.	.	16ccc#J
.	.	8F#	.	8ddd#J)
.	.	4BB	8r	([4.aa
.	.	.	8dd#L	.
.	.	8B)	8dd#J	.
=270	=270	=270	=270	=270
2.D	2.V7	(4E	4.dd	8aaL]
.	.	.	.{3}.	16gg#L
.	.	.	.{3}.	16ff#J
.	.	8B	.{3}.	8gg#J)
.	.	4E	4.gg#	8r
.	.	.	.{3}.	8dddL
.	.	8e)	.{3}.	8dddJ
=271	=271	=271	=271	=271
4.T	4.I	8A	4aa	4ccc#
*	*	*clefG2	*	*
.	.	8ee'L	.	.
.	.	8ee'J	8r	8eee'
4.T	4.V7d	(8eeL	4r	4bb'
.	.	16ddL	.	.
.	.	16cc#J	.	.
.	.	8ddJ)	8r	8eee'
=272	=272	=272	=272	=272
4.T	4.Ib	4cc#'	8r	4aa
.	.	.	8eeL	.
.	.	8cc#'	8eeJ	8r
4.T	4.V7c	4b'	(8eeL	4gg#
.	.	.	16ddL	.
.	.	.	16cc#J	.
.	.	8b'	8ddJ)	8r
=273	=273	=273	=273	=273
4.T	4.I	8a'L	4cc#	4aa'
.	.	8cc#'	.	.
.	.	8cc#'J	8r	8ccc#'
4.T	4.V7d/vi	(8cc#L	4r	4gg#'
.	.	16bL	.	.
.	.	16a#J	.	.
.	.	8bJ)	8r	8ccc#'
=274	=274	=274	=274	=274
4.T	4.ib/vi	4a'	8r	4ff#
.	.	.	8cc#L	.
.	.	8a'	8cc#J	8r
4.T	4.V7c/vi	4g#'	(8cc#L	4ee#
.	.	.	16bL	.
.	.	.	16a#J	.
.	.	8g#'	8bJ)	8r
=275	=275	=275	=275	=275
4.T	4.i/vi	8f#'L	4a	4ff#'
.	.	8a'	.	.
.	.	8a'J	8r	8aa'
4.T	4.V7d/IV	(8aL	4.r	4ee'
.	.	16gL	.	.
.	.	16f#J	.	.
.	.	8gJ)	.{3}.	8aa'
=276	=276	=276	=276	=276
4.P	4.Ib/IV	4f#'	8r	4dd
.	.	.	8aL	.
.	.	8f#'	8aJ	8r
4.P	4.V7c/IV	4e'	(8aL	4cc#
.	.	.	16gL	.
.	.	.	16f#J	.
.	.	8e'	8gJ)	8r
*	*	*clefF4	*	*
=277	=277	=277	=277	=277
4.P	4.I/IV	4d	4f#	4dd
.	.	8A'	8r	8r
*	*	*	*v	*v
4.P	4.V7d/IV	4G'	16aLL
.	.	.	16g#
.	.	.	16a
.	.	.	16b
.	.	8A'	16cc#
.	.	.	16aJJ
=278	=278	=278	=278
4.P	4.Ib/IV	4F#'	16ddLL
.	.	.	16cc#
.	.	.	16dd
.	.	.	16ee
.	.	8A'	16ff#
.	.	.	16ddJJ
4.P	4.V7c/IV	4E'	16ggLL
.	.	.	16ff#
.	.	.	16gg
.	.	.	16aa
.	.	8A'	16bb
.	.	.	16ccc#JJ
=279	=279	=279	=279
4.P	4.I/IV	4D	4ddd
.	.	8r	8a' 8aa'
4.P	4.V7/IV	16AALL	4g' 4gg'
.	.	16GG#	.
.	.	16AA	.
.	.	16BB	.
.	.	16C#	8a' 8aa'
.	.	16AAJJ	.
=280	=280	=280	=280
4.P	4.I/IV	16DLL	4f#' 4ff#'
.	.	16C#	.
.	.	16D	.
.	.	16E	.
.	.	16F#	8a' 8aa'
.	.	16GJJ	.
4.P	4.V/IV	16ALL	4e' 4ee'
.	.	16G#	.
.	.	16A	.
.	.	16B	.
.	.	16c#	8a' 8aa'
.	.	16AJJ	.
=281	=281	=281	=281
4.P	4.I/IV	4d	4dd
.	.	8FF#' 8F#'	8r
4.P	4.V7d/ii	4EE' 4E'	16f#LL
.	.	.	16e#
.	.	.	16f#
.	.	.	16g#
.	.	8FF#' 8F#'	16a#
.	.	.	16f#JJ
=282	=282	=282	=282
4.P	4.ib/ii	4DD' 4D'	16bLL
.	.	.	16a#
.	.	.	16b
.	.	.	16cc#
.	.	8FF#' 8F#'	16dd
.	.	.	16bJJ
4.P	4.V7c	4CC#' 4C#'	16eeLL
.	.	.	16dd#
.	.	.	16ee
.	.	.	16ff#
.	.	8FF#' 8F#'	16gg#
.	.	.	16aa#JJ
=283	=283	=283	=283
4.P	4.i/ii	4BBB 4BB	4bb
.	.	8r	8f#' 8ff#'
4.P	4.V7/ii	16FF#LL	4e' 4ee'
.	.	16EE#	.
.	.	16FF#	.
.	.	16GG#	.
.	.	16AA#	8f#' 8ff#'
.	.	16FF#JJ	.
=284	=284	=284	=284
4.P	4.i/ii	16BBLL	4d' 4dd'
.	.	16AA#	.
.	.	16BB	.
.	.	16C#	.
.	.	16D	8f#' 8ff#'
.	.	16EJJ	.
4.P	4.V/ii	16F#LL	4c#' 4cc#'
.	.	16E#	.
.	.	16F#	.
.	.	16G#	.
.	.	16A#	8f#' 8ff#'
.	.	16F#JJ	.
=285	=285	=285	=285
4.P	4.i/ii	4B	4b
.	.	8DD' 8D'	8r
4.P	4.V7d/VI/ii	4CC' 4C'	16dLL
.	.	.	16c#
.	.	.	16d
.	.	.	16e
.	.	8DD' 8D'	16f#
.	.	.	16dJJ
=286	=286	=286	=286
4.P	4.Ib/VI/ii	4BBB' 4BB'	16gLL
.	.	.	16f#
.	.	.	16g
.	.	.	16a
.	.	8DD' 8D'	16b
.	.	.	16gJJ
4.P	4.V7c/VI/ii	4AAA' 4AA'	16ccLL
.	.	.	16b
.	.	.	16cc
.	.	.	16dd
.	.	8DD' 8D'	16ee
.	.	.	16ff#JJ
=287	=287	=287	=287
4.P	4.I/VI/ii	[2.GGG [2.GG	4gg
.	.	.	8ddd
*	*	*	*^
4.P	4.V7/VI/ii	.	4ff#	4ccc'
.	.	.	8r	8ddd'
=288	=288	=288	=288	=288
4.P	4.I/VI/ii	2.GGG_ 2.GG_	4gg	4bb'
.	.	.	8r	8ddd'
4.P	4.V7/VI/ii	.	4cc	4aa'
.	.	.	8r	8ddd'
=289	=289	=289	=289	=289
4.P	4.I/VI/ii	2.GGG] 2.GG]	4b	4gg'
.	.	.	8r	8ddd'
4.P	4.VI7/ii	.	4b	4ff#'
.	.	.	8r	8ddd'
=290	=290	=290	=290	=290
4.P	2.V7c/vi	2.GGG# 2.GG#	4b	(8ee#L
.	.	.	.	8bb
.	.	.	8r	8ccc#J
.	.	.	4.ee#	8dddL
.	.	.	.	8ccc#
.	.	.	.	8bbJ)
=291	=291	=291	=291	=291
2.P	2.ib/vi	2.AAA 2.AA	2.ff#	8r
.	.	.	.	(8aaL
.	.	.	.	8bbJ
.	.	.	.	8ccc#L
.	.	.	.	8bb
.	.	.	.	8aaJ)
=292	=292	=292	=292	=292
2.P	2.iiob	2.BBB 2.BB	2.dd	8r
.	.	.	.	(8gg#L
.	.	.	.	8aaJ
.	.	.	.	8bbL
.	.	.	.	8aa
.	.	.	.	8gg#J)
=293	=293	=293	=293	=293
2.P	2.viioD7/V/vi	2.BBB# 2.BB#	2.dd#	8r
.	.	.	.	(8ff#L
.	.	.	.	8gg#J
.	.	.	.	8aaL
.	.	.	.	8gg#
.	.	.	.	8ff#J)
=294	=294	=294	=294	=294
2.P	2.viioD7/V/vi	2.BB# 2.B#	2.a	8r
.	.	.	.	(8dd#L
.	.	.	.	8ee#J
.	.	.	.	8ff#L
.	.	.	.	8ee#
.	.	.	.	8dd#J)
*	*	*	*v	*v
=295	=295	=295	=295
2.D	2.V7/vi	16C#LL	4g# 4ee#
.	.	16c#	.
.	.	16C#	.
.	.	16c#	.
.	.	16C#	8ccc#'
.	.	16c#JJ	.
.	.	16C#LL	4gg#'
.	.	16c#	.
.	.	16C#	.
.	.	16c#	.
.	.	16C#	8cc#' 8aa'
.	.	16c#JJ	.
=296	=296	=296	=296
4.D	4.V/vi	16C#LL	4g#' 4ee#'
.	.	16c#	.
.	.	16C#	.
.	.	16c#	.
.	.	16C#	8a' 8cc#' 8ff#'
.	.	16c#JJ	.
4.D	4.Gn/vi	16C#LL	4f#' 4a' 4dd'
.	.	16c#	.
.	.	16C#	.
.	.	16c#	.
.	.	16C#	8f#' 8a' 8b#'
.	.	16c#JJ	.
=297	=297	=297	=297
2.D	2.V/vi	16CC#LL	4e#' 4g#' 4cc#'
.	.	16C#	.
.	.	16CC#	.
.	.	16C#	.
.	.	16CC#	8cc#'
.	.	16C#JJ	.
.	.	16CC#LL	4g#'
.	.	16C#	.
.	.	16CC#	.
.	.	16C#	.
.	.	16CC#	8c#' 8a'
.	.	16C#JJ	.
=298	=298	=298	=298
4.D	4.V/vi	16CC#LL	4G#' 4e#'
.	.	16C#	.
.	.	16CC#	.
.	.	16C#	.
.	.	16CC#	8A' 8c#' 8f#'
.	.	16C#JJ	.
*	*	*	*clefF4
4.D	4.Gn/vi	16CC#LL	4F#' 4A' 4d'
.	.	16C#	.
.	.	16CC#	.
.	.	16C#	.
.	.	16CC#	8F#' 8A' 8B#'
.	.	16C#JJ	.
=299	=299	=299	=299
*	*	*	*^
4.D	4.V/vi	16CC#LL	4.E# 4.G#	([4.c#
.	.	16C#	.	.
.	.	16CC#	.	.
.	.	16C#	.	.
.	.	16CC#	.	.
.	.	16C#JJ	.	.
4.D	4.viioD7/V/vi	16CC#LL	4.F# 4.A	4c#]
.	.	16C#	.	.
.	.	16CC#	.	.
.	.	16C#	.	.
.	.	16CC#	.	8B#)
.	.	16C#JJ	.	.
=300	=300	=300	=300	=300
4.D	4.V/vi	16CC#LL	4.E# 4.G#	([4.c#
.	.	16C#	.	.
.	.	16CC#	.	.
.	.	16C#	.	.
.	.	16CC#	.	.
.	.	16C#JJ	.	.
4.D	4.viioD7/V/vi	16CC#LL	4.F# 4.A	4c#]
.	.	16C#	.	.
.	.	16CC#	.	.
.	.	16C#	.	.
.	.	16CC#	.	8B#)
.	.	16C#JJ	.	.
*	*	*	*v	*v
=301	=301	=301	=301
2.D	2.V/vi	16CC#LL	[2.E# [2.G# [2.c#
.	.	16EE#	.
.	.	16GG#	.
.	.	16C#	.
.	.	16GG#	.
.	.	16EE#JJ	.
.	.	16CC#LL	.
.	.	16EE#	.
.	.	16GG#	.
.	.	16C#	.
.	.	16GG#	.
.	.	16EE#JJ	.
=302	=302	=302	=302
2.D	2.V/vi	16CC#LL	2.E#] 2.G#] 2.c#]
.	.	16EE#	.
.	.	16GG#	.
.	.	16C#	.
.	.	16GG#	.
.	.	16EE#JJ	.
.	.	16CC#LL	.
.	.	16EE#	.
.	.	16GG#	.
.	.	16C#	.
.	.	16GG#	.
.	.	16EE#JJ	.
=303	=303	=303	=303
2.D	2.viioD7d/vi	16DDLL	[2.F [2.A- [2.B
.	.	16FF	.
.	.	16AA-	.
.	.	16BB	.
.	.	16AA-	.
.	.	16FFJJ	.
.	.	16DDLL	.
.	.	16FF	.
.	.	16AA-	.
.	.	16BB	.
.	.	16AA-	.
.	.	16FFJJ	.
=304	=304	=304	=304
*Ab:	*Ab:	*Ab:	*Ab:
2.D	2.viioD7/V	16DDLL	2.F] 2.A-] 2.B]
.	.	16FF	.
.	.	16AA-	.
.	.	16BB	.
.	.	16AA-	.
.	.	16FFJJ	.
.	.	16DDLL	.
.	.	16FF	.
.	.	16AA-	.
.	.	16BB	.
.	.	16AA-	.
.	.	16FFJJ	.
=305||	=305||	=305||	=305||
*	*	*k[]	*k[]
2.D	2.Cc	16EE-LL	4E- 4A- 4c
.	.	16AA-	.
.	.	16C	.
.	.	16E-	.
.	.	16C	8r
.	.	16AA-JJ	.
.	.	16EE-LL	4.r
.	.	16AA-	.
.	.	16C	.
.	.	16E-	.
.	.	16C	.
.	.	16AA-JJ	.
=306	=306	=306	=306
2.D	2.Cc	16EE-LL	4.r
.	.	16AA-	.
.	.	16C	.
.	.	16E-	.
.	.	16C	.
.	.	16AA-JJ	.
.	.	16EE-LL	8r
.	.	16AA-	.
*	*	*	*clefG2
.	.	16C	8cc'L
.	.	16E-	.
.	.	16C	8ee-'J
.	.	16AA-JJ	.
=307	=307	=307	=307
4.D	4.V7	16EE-LL	(4dd-
.	.	16BB-	.
.	.	16D-	.
.	.	16E-	.
.	.	16D-	8ee-)
.	.	16BB-JJ	.
4.D	4.Cc	16EE-LL	8r
.	.	16AA-	.
.	.	16C	8cc'L
.	.	16E-	.
.	.	16C	8ee-'J
.	.	16AA-JJ	.
=308	=308	=308	=308
2.D	2.V7	16EE-LL	(4b-
.	.	16GG	.
.	.	16D-	.
.	.	16E-	.
.	.	16D-	8ee-)
.	.	16GGJJ	.
.	.	16EE-LL	8r
.	.	16GG	.
.	.	16D-	8b-'L
.	.	16E-	.
.	.	16D-	8cc'J
.	.	16GGJJ	.
=309	=309	=309	=309
2.T	2.I	16AA-LL	4a-
.	.	16C	.
.	.	16E-	.
.	.	16A-	.
.	.	16E-	8r
.	.	16CJJ	.
.	.	16AA-LL	4.r
.	.	16C	.
.	.	16E-	.
.	.	16A-	.
.	.	16E-	.
.	.	16CJJ	.
=310	=310	=310	=310
2.T	2.I	16AA-LL	2.r
.	.	16C	.
.	.	16E-	.
.	.	16A-	.
.	.	16E-	.
.	.	16CJJ	.
.	.	16AA-LL	.
.	.	16C	.
.	.	16E-	.
.	.	16A-	.
.	.	16E-	.
.	.	16CJJ	.
=311	=311	=311	=311
2.P	2.viioD7/V/V	16AAnLL	2.r
.	.	16C	.
.	.	16E-	.
.	.	16G-	.
.	.	16E-	.
.	.	16CJJ	.
.	.	16AAnLL	.
.	.	16C	.
.	.	16E-	.
.	.	16G-	.
.	.	16E-	.
.	.	16CJJ	.
=312	=312	=312	=312
2.P	2.viioD7/V/V	16AAnLL	2.r
.	.	16C	.
.	.	16E-	.
.	.	16G-	.
.	.	16E-	.
.	.	16CJJ	.
.	.	16AAnLL	.
.	.	16C	.
.	.	16E-	.
.	.	16G-	.
.	.	16E-	.
.	.	16CJJ	.
=313	=313	=313	=313
2.D	2.Cc/V	16BB-LL	2.r
.	.	16E-	.
.	.	16G	.
.	.	16B-	.
.	.	16G	.
.	.	16E-JJ	.
.	.	16BB-LL	.
.	.	16E-	.
.	.	16G	.
.	.	16B-	.
.	.	16G	.
.	.	16E-JJ	.
=314	=314	=314	=314
2.D	2.Cc/V	16BB-LL	4.r
.	.	16E-	.
.	.	16G	.
.	.	16B-	.
.	.	16G	.
.	.	16E-JJ	.
.	.	16BB-LL	8r
.	.	16E-	.
.	.	16G	8g'L 8gg'
.	.	16B-	.
.	.	16G	8b-'J 8bb-'
.	.	16E-JJ	.
=315	=315	=315	=315
4.D	4.V7/V	16BB-LL	(4a- 4aa-
.	.	16Fn	.
.	.	16A-	.
.	.	16B-	.
.	.	16A-	8b-) 8bb-
.	.	16FJJ	.
4.D	4.Cc/V	16BB-LL	8r
.	.	16E-	.
.	.	16G	8g'L 8gg'
.	.	16B-	.
.	.	16G	8b-'J 8bb-'
.	.	16E-JJ	.
=316	=316	=316	=316
2.D	2.V7/V	16BB-LL	(4f 4ff
.	.	16Dn	.
.	.	16A-	.
.	.	16B-	.
.	.	16A-	8b-) 8bb-
.	.	16DJJ	.
.	.	16BB-LL	8r
.	.	16Dn	.
.	.	16A-	8f'L 8ff'
.	.	16B-	.
.	.	16A-	8g'J 8gg'
.	.	16DJJ	.
=317	=317	=317	=317
2.T	2.I/V	16E-LL	4e- 4ee-
.	.	16G	.
.	.	16B-	.
.	.	16e-	.
.	.	16B-	8r
.	.	16GJJ	.
.	.	16E-LL	4.r
.	.	16G	.
.	.	16B-	.
.	.	16e-	.
.	.	16B-	.
.	.	16GJJ	.
=318	=318	=318	=318
2.T	2.I/V	16E-LL	2.r
.	.	16G	.
.	.	16B-	.
.	.	16e-	.
.	.	16B-	.
.	.	16GJJ	.
.	.	16E-LL	.
.	.	16G	.
.	.	16B-	.
.	.	16e-	.
.	.	16B-	.
.	.	16GJJ	.
=319	=319	=319	=319
*G:	*G:	*G:	*G:
2.P	2.viioD7b/V	16EnLL	2.r
.	.	16G	.
.	.	16B-	.
.	.	16c#	.
.	.	16B-	.
.	.	16GJJ	.
.	.	16EnLL	.
.	.	16G	.
.	.	16B-	.
.	.	16c#	.
.	.	16B-	.
.	.	16GJJ	.
=320	=320	=320	=320
2.P	2.viioD7b/V	16EnLL	2.r
.	.	16G	.
.	.	16B-	.
.	.	16c#	.
.	.	16B-	.
.	.	16GJJ	.
.	.	16EnLL	.
.	.	16G	.
.	.	16B-	.
.	.	16c#	.
.	.	16B-	.
.	.	16GJJ	.
=321	=321	=321	=321
2.D	2.Cc	16DnLL	2.r
.	.	16G	.
.	.	16Bn	.
.	.	16d	.
.	.	16B	.
.	.	16GJJ	.
.	.	16DnLL	.
.	.	16G	.
.	.	16Bn	.
.	.	16d	.
.	.	16B	.
.	.	16GJJ	.
=322	=322	=322	=322
2.D	2.Cc	16DnLL	4.r
.	.	16G	.
.	.	16Bn	.
.	.	16d	.
.	.	16B	.
.	.	16GJJ	.
.	.	16DnLL	8r
.	.	16G	.
.	.	16Bn	8b'L 8bb'
.	.	16d	.
.	.	16B	8dd'J 8ddd'
.	.	16GJJ	.
=323	=323	=323	=323
4.D	4.V7	16DnLL	(4cc 4ccc
.	.	16A	.
.	.	16cn	.
.	.	16d	.
.	.	16c	8dd) 8ddd
.	.	16AJJ	.
4.D	4.Cc	16DnLL	8r
.	.	16G	.
.	.	16Bn	8b'L 8bb'
.	.	16d	.
.	.	16B	8dd'J 8ddd'
.	.	16GJJ	.
=324	=324	=324	=324
2.D	2.V7	16DnLL	(4a 4aa
.	.	16F#	.
.	.	16cn	.
.	.	16d	.
.	.	16c	8dd) 8ddd
.	.	16F#JJ	.
.	.	16DnLL	8r
.	.	16F#	.
.	.	16cn	8a'L 8aa'
.	.	16d	.
.	.	16c	8b'J 8bb'
.	.	16F#JJ	.
=325	=325	=325	=325
4.D	4.Cc	16DnLL	4g 4gg
.	.	16G	.
.	.	16Bn	.
.	.	16d	.
.	.	16B	8r
.	.	16GJJ	.
*	*	*	*clefF4
4.D	4.V7	16DnLL	8r
.	.	16F#	.
.	.	16cn	8AA'L
.	.	16d	.
.	.	16c	8BB'J
.	.	16F#JJ	.
=326	=326	=326	=326
4.D	4.Cc	16DnLL	4GG
.	.	16G	.
.	.	16Bn	.
.	.	16d	.
.	.	16B	8r
.	.	16GJJ	.
*	*	*	*clefG2
4.D	4.V7	16DnLL	8r
.	.	16F#	.
.	.	16cn	8a'L 8aa'
.	.	16d	.
.	.	16c	8b'J 8bb'
.	.	16F#JJ	.
=327	=327	=327	=327
4.D	4.Cc	16DnLL	4g 4gg
.	.	16G	.
.	.	16Bn	.
.	.	16d	.
.	.	16B	8r
.	.	16GJJ	.
*	*	*	*clefF4
4.D	4.V7	16DnLL	8r
.	.	16F#	.
.	.	16cn	8AA'L
.	.	16d	.
.	.	16c	8BB'J
.	.	16F#JJ	.
=328	=328	=328	=328
4.D	4.Cc	16DnLL	4GG
.	.	16G	.
.	.	16Bn	.
.	.	16d	.
.	.	16B	8r
.	.	16GJJ	.
*	*	*	*clefG2
*a:	*a:	*a:	*a:
4.D	4.V7	16EnLL	8r
.	.	16G#	.
.	.	16dn	8b'L 8bb'
.	.	16e	.
.	.	16d	8cc'J 8ccc'
.	.	16G#JJ	.
=329	=329	=329	=329
4.D	4.Cc	16EnLL	4a 4aa
.	.	16A	.
.	.	16cn	.
.	.	16e	.
.	.	16c	8r
.	.	16AJJ	.
*	*	*	*clefF4
4.D	4.V7	16EnLL	8r
.	.	16G#	.
.	.	16dn	8BB'L
.	.	16e	.
.	.	16d	8C'J
.	.	16G#JJ	.
=330	=330	=330	=330
4.D	4.Cc	16EnLL	4AA
.	.	16A	.
.	.	16cn	.
.	.	16e	.
.	.	16c	8r
.	.	16AJJ	.
*	*	*	*clefG2
4.D	4.V7	16EnLL	8r
.	.	16G#	.
.	.	16dn	8b'L 8bb'
.	.	16e	.
.	.	16d	8cc'J 8ccc'
.	.	16G#JJ	.
=331	=331	=331	=331
4.D	4.Cc	16EnLL	4a 4aa
.	.	16A	.
.	.	16cn	.
.	.	16e	.
.	.	16c	8r
.	.	16AJJ	.
*	*	*	*clefF4
4.D	4.V7	16EnLL	8r
.	.	16G#	.
.	.	16dn	8BB'L
.	.	16e	.
.	.	16d	8C'J
.	.	16G#JJ	.
=332	=332	=332	=332
4.D	4.Cc	16EnLL	4AA
.	.	16A	.
.	.	16cn	.
.	.	16e	.
.	.	16c	8r
.	.	16AJJ	.
*	*	*	*clefG2
4.D	4.Gn	16FnLL	8r
.	.	16A	.
.	.	16Bn	8dd#'L 8ddd#'
.	.	16d#	.
.	.	16B	8dd#'J 8ddd#'
.	.	16AJJ	.
=333	=333	=333	=333
4.D	2.V	16EnLL	4ee 4eee
.	.	16A	.
.	.	16cn	.
.	.	16e	.
.	.	16c	8r
.	.	16AJJ	.
*	*	*	*clefF4
4.D	4.Gn	16FnLL	8r
.	.	16A	.
.	.	16Bn	8FF'L
.	.	16d#	.
.	.	16B	8FF'J
.	.	16AJJ	.
=334	=334	=334	=334
4.D	4.V	16EnLL	4EE
.	.	16A	.
.	.	16cn	.
.	.	16e	.
.	.	16c	8r
.	.	16AJJ	.
*	*	*	*clefG2
4.D	4.Gn	16FnLL	8r
.	.	16A	.
.	.	16Bn	8dd#'L 8ddd#'
.	.	16d#	.
.	.	16B	8dd#'J 8ddd#'
.	.	16AJJ	.
=335	=335	=335	=335
4.D	4.V	16EnLL	4ee 4eee
.	.	16A	.
.	.	16cn	.
.	.	16e	.
.	.	16c	8r
.	.	16AJJ	.
*	*	*	*clefF4
4.D	4.Gn	16FnLL	8r
.	.	16A	.
.	.	16Bn	8FFL
.	.	16d#	.
.	.	16B	8FFJ
.	.	16AJJ	.
=336	=336	=336	=336
4.D	4.V	16EnLL	4EE
.	.	16A	.
.	.	16cn	.
.	.	16e	.
.	.	16c	8r
.	.	16AJJ	.
*	*	*	*clefG2
4.D	4.Gn	16FnLL	8r
.	.	16A	.
.	.	16Bn	8dd#L 8ddd#
.	.	16d#	.
.	.	16B	8dd#J 8ddd#
.	.	16AJJ	.
=337	=337	=337	=337
4.D	4.V	16EnLL	4ee 4eee
.	.	16A	.
.	.	16cn	.
.	.	16e	.
.	.	16c	8r
.	.	16AJJ	.
4.D	4.Gn	16FnLL	8r
.	.	16A	.
.	.	16Bn	8dd#L 8ddd#
.	.	16d#	.
.	.	16B	8dd#J 8ddd#
.	.	16AJJ	.
=338	=338	=338	=338
4.D	4.V	16EnLL	4ee 4eee
.	.	16A	.
.	.	16cn	.
.	.	16e	.
.	.	16c	8r
.	.	16AJJ	.
4.D	4.Gn	16FnLL	8r
.	.	16A	.
.	.	16Bn	8dd#L 8ddd#
.	.	16d#	.
.	.	16B	8dd#J 8ddd#
.	.	16AJJ	.
=339	=339	=339	=339
2.D	2.V	4En 4G# 4Bn 4en	16eeeLL
.	.	.	16ddd#
.	.	.	16eee
.	.	.	16ddd#
.	.	8r	16eee
.	.	.	16ddd#JJ
*	*	*clefG2	*
.	.	4r	16eeeLL
.	.	.	16ddd#
.	.	.	16eee
.	.	.	16ddd#
.	.	(8g# 8b	16eee
.	.	.	16ddd#JJ
=340	=340	=340	=340
2.D	2.i	4a) 4cc	16eeeLL
.	.	.	16ddd#
.	.	.	16eee
.	.	.	16ddd#
.	.	8r	16eee
.	.	.	16ddd#JJ
.	.	4r	16eeeLL
.	.	.	16ddd#
.	.	.	16eee
.	.	.	16ddd#
.	.	(8f# 8a	16eee
.	.	.	16ddd#JJ
=341	=341	=341	=341
2.D	2.V7b	4g#) 4b	16eeeLL
.	.	.	16ddd#
.	.	.	16eee
.	.	.	16ddd#
.	.	8r	16eee
.	.	.	16ddd#JJ
.	.	4r	16eeeLL
.	.	.	16ddd#
.	.	.	16eee
.	.	.	16ddd#
.	.	(8b 8dd	16eee
.	.	.	16ddd#JJ
=342	=342	=342	=342
2.D	2.i	4a) 4cc	16eeeLL
.	.	.	16ddd#
.	.	.	16eee
.	.	.	16ddd#
.	.	8r	16eee
.	.	.	16ddd#JJ
.	.	4r	16eeeLL
.	.	.	16ddd#
.	.	.	16eee
.	.	.	16ddd#
.	.	(8f# 8a	16eee
.	.	.	16ddd#JJ
=343	=343	=343	=343
2.D	2.V	4e) 4g# 4b	16eeeLL
.	.	.	16ddd#
.	.	.	16eee
.	.	.	16ddd#
.	.	8r	16eee
.	.	.	16ddd#JJ
.	.	4.r	16eeeLL
.	.	.	16ddd#
.	.	.	16eee
.	.	.	16ddd#
.	.	.	16eee
.	.	.	16ddd#JJ
=344	=344	=344	=344
2.D	2.V	2.r	16eeeLL
.	.	.	16ddd#
.	.	.	16eee
.	.	.	16ddd#
.	.	.	16eee
.	.	.	16ddd#JJ
.	.	.	16eeeLL
.	.	.	16ddd#
.	.	.	16eee
.	.	.	16ddd#
.	.	.	16eee
.	.	.	16ddd#JJ
=345	=345	=345	=345
2.D	2.V7	2.r	2.dddn
=346	=346	=346	=346
4.D	4.V7	4.r	4.ddd
*-	*-	*-	*-
!!!COM: Beethoven 
!!!OTL: 12 Variationen uber einen russichen Tanz von P. Wranitzky
!!!Variation: Variation 12 f
**function	**harm	**kern	**kern
*	*	*clefG2	*clefG2
*	*	*k[f#c#g#]	*k[f#c#g#]
*M6/8	*M6/8	*M6/8	*M6/8
*A:	*A:	*A:	*A:
4T	4Ib	8r	(4ccc#
.	.	(8aaL	.
8T	8V7d/IV	8ggJ	8eee
=347	=347	=347	=347
4T	4iic	8ff#L	4ddd
.	.	8bb	.
8T	8Vb	8gg#J	8eee
4.T	4.I	8aaL	4ccc#
.	.	8ee	.
.	.	8cc#J	8eee
=348	=348	=348	=348
2.T	2.V7d	8ddL	4bb
.	.	8ee	.
.	.	8cc#J	8eee
.	.	8ddL	4bb
.	.	8ee	.
.	.	8ddJ	8ccc#)
=349	=349	=349	=349
2.T	2.Ib	8cc#L	([4.aa
.	.	8ee	.
.	.	8ddJ	.
.	.	8cc#L	8aaL]
.	.	8b	8bb
.	.	8aJ	8ccc#J)
=350	=350	=350	=350
4.D	4.V7	8g#L	(8eeeL
.	.	8e	8ddd
.	.	8bJ	8bbJ
4.D	4.Cc	8aL	8dddL
.	.	8e	8ccc#
.	.	8cc#J	8aaJ)
=351	=351	=351	=351
4.D	4.V	8eeL	4gg# 4bb
.	.	8dd#	.
.	.	8ddJ)	8r
!!!COM: Beethoven 
!!!OTL: 12 Variationen uber einen russichen Tanz von P. Wranitzky
!!!Variation: Variation 12 g
**function	**harm	**kern	**kern
*	*	*clefF4	*clefG2
*	*	*k[f#c#g#]	*k[f#c#g#]
*M6/8	*M6/8	*M6/8	*M6/8
*A:	*A:	*A:	*A:
4T	4I	4A 4a	8r
.	.	.	8cc#'L 8ccc#'
8T	8V7d/IV	8G 8g	8ee'J 8eee'
=352	=352	=352	=352
4T	4IVb	4F# 4f#	8r
.	.	.	8dd'L 8ddd'
8T	8Vb	8G# 8g#	8ee'J 8eee'
4.T	4.I	4A 4a	8r
.	.	.	8cc#'L 8ccc#'
.	.	8C# 8c#	8ee'J 8eee'
=353	=353	=353	=353
2.T	2.V7d	4D 4d	8r
.	.	.	8b'L 8bb'
.	.	8C# 8c#	8ee'J 8eee'
.	.	4D 4d	8r
.	.	.	8bL 8bb
.	.	8E 8e	8cc#J 8ccc#
=354	=354	=354	=354
4.T	4.Ib	4C# 4c#	8r
.	.	.	8aL 8aa
.	.	8BB 8B	8bJ 8bb
4T	4I	4AA 4A	8r
.	.	.	8cc#L 8ccc#
8T	8V7d/IV	8GG 8G	8eeJ 8eee
=355	=355	=355	=355
4.T	4.IVb	4FF# 4F#	8r
.	.	.	8ddL 8ddd
.	.	8EE 8E	8cc#J 8ccc#
4.T	4.V7d	4DD 4D	8r
.	.	.	8bL 8bb
.	.	8EE 8E	8g#J 8gg#
=356	=356	=356	=356
4.T	4.Ib	4CC# 4C#	8r
.	.	.	8aL 8aa
.	.	8BBB 8BB	8g#J 8gg#
4T	4I	4AAA 4AA	8r
.	.	.	8aL 8aa
8T	8V7d/IV	8GGG 8GG	8c#J 8cc#
=357	=357	=357	=357
4.P	4.IVb	4FFF# 4FF#	8r
.	.	.	8dL 8dd
.	.	8DD	8f#J 8ff#
4.D	4.V	4EE	8r
.	.	.	8eL 8ee
.	.	8EE	8G#J 8g#
=358	=358	=358	=358
4.T	4.I	8AAAL 8AA	4A 4a
.	.	8AA	.
.	.	8AAJ	8r
*	*	*^	*
4.T	4.V7/IV	8EL	4.G	8r
.	.	8AA	.	16r
.	.	.	.	(16ALL
.	.	8AAJ	.	16B
.	.	.	.	16c#JJ
=359	=359	=359	=359	=359
4.T	4.IVc	8DL	4.F#	16dLL
.	.	.	.	16e
.	.	8AA	.	16d
.	.	.	.	16c#
.	.	8AAJ	.	16d
.	.	.	.	16eJJ
4.T	4.viio	8BBL	4.D	24f#LL
.	.	.	.	24g#
.	.	.	.	24aJ
.	.	8AA	.	24bL
.	.	.	.	24cc#
.	.	.	.	24ddJ
.	.	8AAJ	.	24eeL
.	.	.	.	24ff#
.	.	.	.	24gg#JJ)
=360	=360	=360	=360	=360
4.T	4.I	8C#L	4.E	4aa
.	.	8AA	.	.
.	.	8AAJ	.	8r
4.T	4.V7/IV	8EL	4.G	8r
.	.	8AA	.	16r
.	.	.	.	(16ALL
.	.	8AAJ	.	16B
.	.	.	.	16c#JJ
=361	=361	=361	=361	=361
4.T	4.IVc	8DL	4.F#	16dLL
.	.	.	.	16e
.	.	8AA	.	16d
.	.	.	.	16c#
.	.	8AAJ	.	16d
.	.	.	.	16eJJ
4.T	4.viio	8BBL	4.D	24f#LL
.	.	.	.	24g#
.	.	.	.	24aJ
.	.	8AA	.	24bL
.	.	.	.	24cc#
.	.	.	.	24ddJ
.	.	8AAJ	.	24eeL
.	.	.	.	24ff#
.	.	.	.	24gg#JJ)
=362	=362	=362	=362	=362
4.T	4.I	8AAL	4C# 4E	4aa
.	.	8AA	.	.
*	*	*	*	*^
.	.	8AAJ	8r	.	(8eee
4.T	4.V7	8r	4.G#	4.dd	4bb
.	.	8AAL	.	.	.
.	.	8AAJ	.	.	8ccc#
=363	=363	=363	=363	=363	=363
4.T	4.I	8r	4.A	(4cc#	4aa)
.	.	8AAL	.	.	.
.	.	8AAJ	.	8ee	8r
4.T	4.V7	8r	4.D	4b	(4.gg#
.	.	8AAL	.	.	.
.	.	8AAJ	.	8cc#	.
=364	=364	=364	=364	=364	=364
4.T	4.I	8r	4.C#	4aa)	4a)
.	.	8AAL	.	.	.
.	.	8AAJ	.	8r	(8eee
4.T	4.V7	8r	4.G#	4.dd	4bb
.	.	8AAL	.	.	.
.	.	8AAJ	.	.	8ccc#
=365	=365	=365	=365	=365	=365
4.T	4.I	8r	4.A	(4cc#	4aa)
.	.	8AAL	.	.	.
.	.	8AAJ	.	8ee	8r
4.T	4.V7	8r	4.D	4b	4.gg#
.	.	8AAL	.	.	.
.	.	8AAJ	.	8cc#	.
=366	=366	=366	=366	=366	=366
4.T	4.I	2.AA	4.C#	4a)	4aa
.	.	.	.	(8e	8r
4.T	4.V7	.	4.D	4B	(4.g#
.	.	.	.	8c#	.
=367	=367	=367	=367	=367	=367
4.T	4.I	2.AA	4.C#	4A	4.a
.	.	.	.	8e	.
4.T	4.V7	.	4.D	4B	4.g#
.	.	.	.	8c#	.
*	*	*v	*v	*	*
=368	=368	=368	=368	=368
2.T	2.I	4AA 4C#	4A)	4a)
.	.	8r	8r	8r
*	*	*	*v	*v
.	.	4.r	4.r
*	*	*	*clefF4
=369	=369	=369	=369
2.T	2.I	4AAA 4AA	4E 4A 4c#
.	.	8r	8r
.	.	4.r	4.r
=370	=370	=370	=370
2.T	2.I	4AAA 4AA	4C# 4E 4A
.	.	8r	8r
.	.	4.r	4.r
==	==	==	==
*-	*-	*-	*-
